**kern	**kern	**kern	**kern	**kern	**kern	**kern	**kern
*part8	*part7	*part6	*part5	*part4	*part3	*part2	*part1
*staff8	*staff7	*staff6	*staff5	*staff4	*staff3	*staff2	*staff1
*I"架子鼓	*I"低音吉他	*I"5弦电贝斯	*I"电子吉他	*I"电子吉他	*I"电子吉他	*I"原音吉他	*I"钢琴
*I'D. Set	*I'B. Guit.	*I'El. B.	*I'El. Guit.	*I'El. Guit.	*I'El. Guit.	*I'Guit.	*I'Pno.
*clefX	*clefF4	*clefF4	*clefGv2	*clefGv2	*clefGv2	*clefGv2	*clefG2
*	*Trd0c0	*Trd0c0	*	*	*	*	*
*k[]	*k[]	*k[b-]	*k[b-]	*k[b-]	*k[b-]	*k[b-]	*k[b-]
*M4/4	*M4/4	*M4/4	*M4/4	*M4/4	*M4/4	*M4/4	*M4/4
*MM133	*MM133	*MM133	*MM133	*MM133	*MM133	*MM133	*MM133
=1	=1	=1	=1	=1	=1	=1	=1
1r	1r	1r	1r	1r	1r	1r	1r
=2	=2	=2	=2	=2	=2	=2	=2
1r	1r	1r	1r	1r	1r	1r	1r
=3	=3	=3	=3	=3	=3	=3	=3
1r	1r	1r	1r	1r	8dL	16DLL	1r
.	.	.	.	.	.	16G	.
.	.	.	.	.	8a'J	16A	.
.	.	.	.	.	.	16dJJ	.
.	.	.	.	.	16dKL	16r	.
.	.	.	.	.	8a'	8c'L	.
.	.	.	.	.	[16dJk	16AJk	.
.	.	.	.	.	8dL]	16r	.
.	.	.	.	.	.	16DLL	.
.	.	.	.	.	8a'	16A	.
.	.	.	.	.	.	16B-JJ	.
.	.	.	.	.	8d	8AL	.
.	.	.	.	.	8a'J	8FJ	.
=4	=4	=4	=4	=4	=4	=4	=4
1r	1r	1r	1r	1r	8cL	16AAKL	1r
.	.	.	.	.	.	8C'	.
.	.	.	.	.	8g'J	.	.
.	.	.	.	.	.	16GJk	.
.	.	.	.	.	16cKL	16r	.
.	.	.	.	.	8g'	8E'L	.
.	.	.	.	.	[16B-Jk	16FJk	.
.	.	.	.	.	8B-L]	16r	.
.	.	.	.	.	.	16DLL	.
.	.	.	.	.	8f'	16G	.
.	.	.	.	.	.	16cJJ	.
.	.	.	.	.	8G	8Bn'L	.
.	.	.	.	.	8g'J	8A'J	.
=5	=5	=5	=5	=5	=5	=5	=5
1r	1r	1r	1r	1r	8dL	16DLL	1r
.	.	.	.	.	.	16G	.
.	.	.	.	.	8a'J	16A	.
.	.	.	.	.	.	16dJJ	.
.	.	.	.	.	16dKL	16r	.
.	.	.	.	.	8a'	8c'L	.
.	.	.	.	.	[16dJk	16AJk	.
.	.	.	.	.	8dL]	16r	.
.	.	.	.	.	.	16DLL	.
.	.	.	.	.	8a'	16A	.
.	.	.	.	.	.	16B-JJ	.
.	.	.	.	.	8d	8AL	.
.	.	.	.	.	8a'J	8FJ	.
=6	=6	=6	=6	=6	=6	=6	=6
1r	1r	1r	1r	1r	8B-L	16DKL	1r
.	.	.	.	.	.	8F'	.
.	.	.	.	.	8fJ	.	.
.	.	.	.	.	.	16AJk	.
.	.	.	.	.	16B-KL	16r	.
.	.	.	.	.	8.f'J	8B-'L	.
.	.	.	.	.	.	16cJk	.
.	.	.	.	.	2r	16r	.
.	.	.	.	.	.	8c'L	.
.	.	.	.	.	.	16cJk	.
.	.	.	.	.	.	16r	.
.	.	.	.	.	.	8c'L	.
.	.	.	.	.	.	16cJk	.
=7	=7	=7	=7	=7	=7	=7	=7
*M2/4	*M2/4	*M2/4	*M2/4	*M2/4	*M2/4	*M2/4	*M2/4
2r	2r	2r	2r	2r	2r	16r	2r
.	.	.	.	.	.	8c'L	.
.	.	.	.	.	.	16cJk	.
.	.	.	.	.	.	16r	.
.	.	.	.	.	.	8c'L	.
.	.	.	.	.	.	16cJk	.
=8	=8	=8	=8	=8	=8	=8	=8
*M4/4	*M4/4	*M4/4	*M4/4	*M4/4	*M4/4	*M4/4	*M4/4
*^	*	*	*	*	*	*	*
8Raa/L	8.Rf\L	4D'	1r	8.aaL	8r	8dL	16DLL	1r
.	.	.	.	.	.	.	16G	.
8Ree/	.	.	.	.	8a'	8a'J	16A	.
.	16Rf\Jk	.	.	[16aaJk	.	.	16dJJ	.
8Rcc/	8r	16dKL	.	8aaL]	16r	16dKL	16r	.
.	.	8D'	.	.	8.f'	8a'	8c'L	.
8Ree/J	16r	.	.	8aaJ	.	.	.	.
.	16Rf\	16DJk	.	.	.	[16dJk	16AJk	.
8r	8r	16AA'LL	.	[2dd	8.g'L	8dL]	16r	.
.	.	16dJ	.	.	.	.	16DLL	.
8Ree/L	16r	8DJ	.	.	.	8a'	16A	.
.	16Rf\	.	.	.	16eJk	.	16B-JJ	.
8Rcc/	16r	8d'L	.	.	8r	8d	8AL	.
.	8.Rf\	.	.	.	.	.	.	.
8Ree/J	.	8DJ	.	.	8d'	8a'J	8FJ	.
=9	=9	=9	=9	=9	=9	=9	=9	=9
8r	8.Rf\L	8CL	1r	1dd]	16r	8cL	16AAKL	1r
.	.	.	.	.	8.c'	.	8C'	.
8Ree/L	.	8AA'J	.	.	.	8g'J	.	.
.	16Rf\Jk	.	.	.	.	.	16GJk	.
8Rcc/	8r	16CKL	.	.	8.d'L	16cKL	16r	.
.	.	8G'	.	.	.	8g'	8E'L	.
8Ree/J	16r	.	.	.	.	.	.	.
.	16Rf\	16BB-XJk	.	.	16eJk	[16B-Jk	16FJk	.
8r	8r	16BB-LL	.	.	8r	8B-L]	16r	.
.	.	16G'J	.	.	.	.	16DLL	.
8Ree/L	16r	8BB-J	.	.	8f'	8f'	16G	.
.	16Rf\	.	.	.	.	.	16cJJ	.
8Rcc/	16r	8GG'L	.	.	16r	8G	8Bn'L	.
.	8.Rf\	.	.	.	8g'L	.	.	.
8Ree/J	.	8G'J	.	.	.	8g'J	8A'J	.
.	.	.	.	.	16aJk	.	.	.
=10	=10	=10	=10	=10	=10	=10	=10	=10
8r	8.Rf\L	4D'	1r	8.aaL	8r	8dL	16DLL	1r
.	.	.	.	.	.	.	16G	.
8Ree/L	.	.	.	.	8a'	8a'J	16A	.
.	16Rf\Jk	.	.	[16aaJk	.	.	16dJJ	.
8Rcc/	8r	16dKL	.	8aaL]	16r	16dKL	16r	.
.	.	8D'	.	.	8.f'	8a'	8c'L	.
8Ree/J	16r	.	.	8aaJ	.	.	.	.
.	16Rf\	16DJk	.	.	.	[16dJk	16AJk	.
8r	8r	16AA'LL	.	[2dd	8.g'L	8dL]	16r	.
.	.	16dJ	.	.	.	.	16DLL	.
8Ree/L	16r	8DJ	.	.	.	8a'	16A	.
.	16Rf\	.	.	.	16eJk	.	16B-JJ	.
8Rcc/	16r	8d'L	.	.	8r	8d	8AL	.
.	8.Rf\	.	.	.	.	.	.	.
8Ree/J	.	8DJ	.	.	8d'	8a'J	8FJ	.
=11	=11	=11	=11	=11	=11	=11	=11	=11
8r	8.Rf\L	8BB-XL	1r	1dd]	16r	8B-L	16DKL	1r
.	.	.	.	.	8.c'	.	8F'	.
8Ree/L	.	16AA'L	.	.	.	8f'J	.	.
.	16Rf\Jk	16AA'JJ	.	.	.	.	16AJk	.
8Rcc/	8r	16B-XKL	.	.	8.d'L	16B-KL	16r	.
.	.	8BB-'	.	.	.	8f'	8B-'L	.
8Ree/J	16r	.	.	.	.	.	.	.
.	16Rf\	16CJk	.	.	16eJk	[16AJk	16cJk	.
8r	8r	16r	.	.	8r	8AL]	16r	.
.	.	16GKL	.	.	.	.	16GLL	.
8Ree/L	16r	8CJ	.	.	8f'	8e'	16c	.
.	16Rf\	.	.	.	.	.	16eJJ	.
8Rcc/	16r	8C'L	.	.	16r	8c	8c'L	.
.	8.Rf\	.	.	.	8g'L	.	.	.
8Ree/J	.	8C'J	.	.	.	8g'J	8d'J	.
.	.	.	.	.	16aJk	.	.	.
=12	=12	=12	=12	=12	=12	=12	=12	=12
8Raa/L	8.Rf\L	8DL	1r	8.aaL	8r	8dL	16DLL	1r
.	.	.	.	.	.	.	16G	.
8Ree/	.	16AA'L	.	.	8a'	8a'J	16A	.
.	16Rf\Jk	16AA'JJ	.	[16aaJk	.	.	16dJJ	.
8Rcc/	8r	16dKL	.	8aaL]	16r	16dKL	16r	.
.	.	8D'	.	.	8.f'	8a'	8c'L	.
8Ree/J	16r	.	.	8aaJ	.	.	.	.
.	16Rf\	16DJk	.	.	.	[16dJk	16AJk	.
8r	8r	16AA'LL	.	[2dd	8.g'L	8dL]	16r	.
.	.	16dJ	.	.	.	.	16DLL	.
8Ree/L	16r	8DJ	.	.	.	8a'	16A	.
.	16Rf\	.	.	.	16eJk	.	16B-JJ	.
8Rcc/	16r	8d'L	.	.	8r	8d	8AL	.
.	8.Rf\	.	.	.	.	.	.	.
8Ree/J	.	8DJ	.	.	8d'	8a'J	8FJ	.
=13	=13	=13	=13	=13	=13	=13	=13	=13
8r	8.Rf\L	8CL	1r	1dd]	16r	8cL	16AAKL	1r
.	.	.	.	.	8.c'	.	8C'	.
8Ree/L	.	8AA'J	.	.	.	8g'J	.	.
.	16Rf\Jk	.	.	.	.	.	16GJk	.
8Rcc/	8r	16CKL	.	.	8.d'L	16cKL	16r	.
.	.	8G'	.	.	.	8g'	8E'L	.
8Ree/J	16r	.	.	.	.	.	.	.
.	16Rf\	16BB-XJk	.	.	16eJk	[16B-Jk	16FJk	.
8r	8r	16BB-LL	.	.	8r	8B-L]	16r	.
.	.	16G'J	.	.	.	.	16DLL	.
8Ree/L	16r	8BB-J	.	.	8f'	8f'	16G	.
.	16Rf\	.	.	.	.	.	16cJJ	.
8Rcc/	16r	8GG'L	.	.	16r	8G	8Bn'L	.
.	8.Rf\	.	.	.	8g'L	.	.	.
8Ree/J	.	8G'J	.	.	.	8g'J	8A'J	.
.	.	.	.	.	16aJk	.	.	.
=14	=14	=14	=14	=14	=14	=14	=14	=14
8r	8.Rf\L	4D'	1r	8.aaL	8r	8dL	16DLL	1r
.	.	.	.	.	.	.	16G	.
8Ree/L	.	.	.	.	8a'	8a'J	16A	.
.	16Rf\Jk	.	.	[16aaJk	.	.	16dJJ	.
8Rcc/	8r	16dKL	.	8aaL]	16r	16dKL	16r	.
.	.	8D'	.	.	8.f'	8a'	8c'L	.
8Ree/J	16r	.	.	8aaJ	.	.	.	.
.	16Rf\	16DJk	.	.	.	[16dJk	16AJk	.
8r	8r	16AA'LL	.	[2dd	8.g'L	8dL]	16r	.
.	.	16dJ	.	.	.	.	16DLL	.
8Ree/L	16r	8DJ	.	.	.	8a'	16A	.
.	16Rf\	.	.	.	16eJk	.	16B-JJ	.
8Rcc/	16r	8d'L	.	.	8r	8d	8AL	.
.	8.Rf\	.	.	.	.	.	.	.
8Ree/J	.	8DJ	.	.	8d'	8a'J	8FJ	.
=15	=15	=15	=15	=15	=15	=15	=15	=15
8r	8.Rf\L	8BB-XL	1r	1dd]	16r	8B-L	16DKL	2r
.	.	.	.	.	8.c'	.	8F'	.
8Ree/L	.	16AA'L	.	.	.	8f'J	.	.
.	16Rf\Jk	16AA'JJ	.	.	.	.	16AJk	.
8Rcc/	8r	16B-XKL	.	.	8.d'L	16B-KL	16r	.
.	.	8BB-'	.	.	.	8f'	8B-'L	.
8Ree/J	16r	.	.	.	.	.	.	.
.	16Rf\	16CJk	.	.	16eJk	[16AJk	16cJk	.
8r	8r	16r	.	.	8r	8AL]	16r	4r
.	.	16GKL	.	.	.	.	16GLL	.
8Ree/L	16r	8CJ	.	.	8f'	8e'	16c	.
.	16Rf\	.	.	.	.	.	16eJJ	.
8Rcc/	16r	8C'L	.	.	16r	8c	8c'L	8r
.	8.Rf\	.	.	.	8g'L	.	.	.
8Ree/J	.	8C'J	.	.	.	8g'J	8d'J	16r
.	.	.	.	.	16aJk	.	.	16A
=16	=16	=16	=16	=16	=16	=16	=16	=16
8Raa/L	8.Rf\L	8DL	1r	1r	1r	1r	1r	16GLL
.	.	.	.	.	.	.	.	16G
8Rgg/	.	16AA'L	.	.	.	.	.	16G
.	16Rf\Jk	16dJJ	.	.	.	.	.	16GJJ
8Rcc/	8r	16AA'LL	.	.	.	.	.	16FLL
.	.	16d	.	.	.	.	.	16F
8Rgg/J	16r	16AA'	.	.	.	.	.	16F
.	16Rf\	16dJJ	.	.	.	.	.	16FJJ
8r	8r	2r	.	.	.	.	.	16FLL
.	.	.	.	.	.	.	.	16F
8Rgg/L	16r	.	.	.	.	.	.	16F
.	16Rf\	.	.	.	.	.	.	16FJJ
8Rcc/	16r	.	.	.	.	.	.	16r
.	8.Rf\	.	.	.	.	.	.	16FLL
8Rgg/J	.	.	.	.	.	.	.	16F
.	.	.	.	.	.	.	.	16GJJ
=17	=17	=17	=17	=17	=17	=17	=17	=17
8r	8.Rf\L	8BB-X'L	1r	1r	1r	1r	16gLL	16ALL
.	.	.	.	.	.	.	16c	16G
8Rgg/L	.	8BB-'J	.	.	.	.	16d	16G
.	16Rf\Jk	.	.	.	.	.	16gJJ	16GJJ
8Rcc/	8r	8B-X'L	.	.	.	.	16cLL	16FLL
.	.	.	.	.	.	.	16d	16F
8Rgg/J	16r	16AA'L	.	.	.	.	16g	16F
.	16Rf\	16CJJ	.	.	.	.	16cJJ	16FJJ
8r	8r	16r	.	.	.	.	16dLL	16FLL
.	.	16CKL	.	.	.	.	16g	16F
8Rgg/L	16r	8CJ	.	.	.	.	16c	16F
.	16Rf\	.	.	.	.	.	16dJJ	16FJJ
8Rcc/	16r	8C'L	.	.	.	.	4a' 4dd	16r
.	8.Rf\	.	.	.	.	.	.	16FLL
8Rgg/J	.	16CL	.	.	.	.	.	16F
.	.	16DJJ	.	.	.	.	.	16AJJ
=18	=18	=18	=18	=18	=18	=18	=18	=18
8r	8.Rf\L	8DL	1r	1r	1r	1r	1r	16ALL
.	.	.	.	.	.	.	.	16G
8Rgg/L	.	16AA'L	.	.	.	.	.	16G
.	16Rf\Jk	16dJJ	.	.	.	.	.	[16GJJ
8Rcc/	8r	16AA'LL	.	.	.	.	.	16GLL]
.	.	16d	.	.	.	.	.	16F
8Rgg/J	16r	16AA'	.	.	.	.	.	16F
.	16Rf\	16dJJ	.	.	.	.	.	16FJJ
8r	8r	2r	.	.	.	.	.	16FLL
.	.	.	.	.	.	.	.	16F
8Rgg/L	16r	.	.	.	.	.	.	16F
.	16Rf\	.	.	.	.	.	.	16FJJ
8Rcc/	16r	.	.	.	.	.	.	16r
.	8.Rf\	.	.	.	.	.	.	16FLL
8Rgg/J	.	.	.	.	.	.	.	16F
.	.	.	.	.	.	.	.	16AJJ
=19	=19	=19	=19	=19	=19	=19	=19	=19
8r	8.Rf\L	8BB-X'L	1r	1r	1r	1r	16ccLL	16GLL
.	.	.	.	.	.	.	16dd	16G
8Rgg/L	.	8BB-'J	.	.	.	.	16ff	16G
.	16Rf\Jk	.	.	.	.	.	16ccJJ	16GJJ
8Rcc/	8r	8B-X'L	.	.	.	.	16ddLL	16GLL
.	.	.	.	.	.	.	16ff	16F
8Rgg/J	16r	16AA'L	.	.	.	.	16cc	16F
.	16Rf\	16CJJ	.	.	.	.	16ddJJ	16FJJ
8r	8r	16r	.	.	.	.	16ffLL	16FLL
.	.	16CKL	.	.	.	.	16cc	16F
8Rgg/L	16r	8CJ	.	.	.	.	16dd	16F
.	16Rf\	.	.	.	.	.	16aaJJ	16FJJ
8Rcc/	16r	8C'L	.	.	.	.	16ggLL	4r
.	8.Rf\	.	.	.	.	.	16ffJ	.
8Rgg/J	.	16CL	.	.	.	.	8ddJ	.
.	.	16DJJ	.	.	.	.	.	.
=20	=20	=20	=20	=20	=20	=20	=20	=20
8r	8.Rf\L	8DL	1r	1r	1r	1r	8.aL	16ALL
.	.	.	.	.	.	.	.	16G
8Rgg/L	.	16AA'L	.	.	.	.	.	16G
.	16Rf\Jk	16dJJ	.	.	.	.	[16gJk	16GJJ
8Rcc/	8r	16AA'LL	.	.	.	.	8gL]	16GLL
.	.	16d	.	.	.	.	.	16F
8Rgg/J	16r	16AA'	.	.	.	.	[8aJ	16F
.	16Rf\	16dJJ	.	.	.	.	.	16FJJ
8r	8r	2r	.	.	.	.	8a]	16GLL
.	.	.	.	.	.	.	.	16F
8Rgg/L	16r	.	.	.	.	.	4ee	16F
.	16Rf\	.	.	.	.	.	.	16FJJ
8Rcc/	16r	.	.	.	.	.	.	16r
.	8.Rf\	.	.	.	.	.	.	16FLL
8Rgg/J	.	.	.	.	.	.	24eeKL	16F
.	.	.	.	.	.	.	[12ffJ	.
.	.	.	.	.	.	.	.	[16AJJ
=21	=21	=21	=21	=21	=21	=21	=21	=21
8r	8.Rf\L	8BB-X'L	1r	1r	1r	1r	8ff]	16ALL]
.	.	.	.	.	.	.	.	16G
8Rgg/L	.	8BB-'J	.	.	.	.	4ee	16G
.	16Rf\Jk	.	.	.	.	.	.	[16GJJ
8Rcc/	8r	8B-X'L	.	.	.	.	.	16GLL]
.	.	.	.	.	.	.	.	16F
8Rgg/J	16r	16AA'L	.	.	.	.	[8a	16F
.	16Rf\	16CJJ	.	.	.	.	.	16GJJ
8r	8r	16r	.	.	.	.	8a]	16GLL
.	.	16CKL	.	.	.	.	.	16F
8Rgg/L	16r	8CJ	.	.	.	.	4g	16F
.	16Rf\	.	.	.	.	.	.	16FJJ
8Rcc/	16r	8C'L	.	.	.	.	.	16r
.	8.Rf\	.	.	.	.	.	.	8FL
8Rgg/J	.	16CL	.	.	.	.	24gKL	.
.	.	.	.	.	.	.	[12aJ	.
.	.	16DJJ	.	.	.	.	.	16GJk
=22	=22	=22	=22	=22	=22	=22	=22	=22
8r	8.Rf\L	8DL	1r	1r	1r	8r	1a]	16ALL
.	.	.	.	.	.	.	.	16G
8Rgg/L	.	16AA'L	.	.	.	8D' 8G	.	16G
.	16Rf\Jk	16dJJ	.	.	.	.	.	[16GJJ
8Rcc/	8r	16AA'LL	.	.	.	16D'KL 16G	.	16GLL]
.	.	16d	.	.	.	8.D'J 8.G	.	16F
8Rgg/J	16r	16AA'	.	.	.	.	.	16F
.	16Rf\	48.dL	.	.	.	.	.	16FJJ
.	.	[48.fJJJ	.	.	.	.	.	.
8r	8r	8fL]	.	.	.	2r	.	16GLL
.	.	.	.	.	.	.	.	16F
8Ree/L	16r	8e	.	.	.	.	.	16F
.	16Rf\	.	.	.	.	.	.	16FJJ
8Rcc/	16r	8d	.	.	.	.	.	16r
.	8.Rf\	.	.	.	.	.	.	16FLL
8Ree/J	.	8AJ	.	.	.	.	.	16F
.	.	.	.	.	.	.	.	16AJJ
=23	=23	=23	=23	=23	=23	=23	=23	=23
8r	8.Rf\L	8BB-XL	1r	1r	1r	1r	8ddL	16ALL
.	.	.	.	.	.	.	.	16G
8Ree/L	.	8BB-J	.	.	.	.	8dJ	16G
.	16Rf\Jk	.	.	.	.	.	.	16GJJ
8Rcc/	8r	8B-X'L	.	.	.	.	16ddLL	16GLL
.	.	.	.	.	.	.	16d	16F
8Ree/J	16r	16BB-L	.	.	.	.	16aa	16F
.	16Rf\	16CJJ	.	.	.	.	16b-JJ	16FJJ
8r	8r	16r	.	.	.	.	8ffL	16FLL
.	.	16AA'KL	.	.	.	.	.	16F
8Ree/L	16r	8CJ	.	.	.	.	16ccL	16F
.	16Rf\	.	.	.	.	.	[16ggJJ	16FJJ
8Rcc/	16r	8GL 8c	.	.	.	.	16ggLL]	16r
.	8.Rf\	.	.	.	.	.	16ccJ	16FLL
8Ree/J	.	8CJ	.	.	.	.	8ggJ	16E
.	.	.	.	.	.	.	.	16FJJ
=24	=24	=24	=24	=24	=24	=24	=24	=24
8Raa/L	8.Rf\L	8DL	1r	8.aaL	8r	8dL	16DLL	1r
.	.	.	.	.	.	.	16G	.
8Ree/	.	16AA'L	.	.	8a'	8a'J	16A	.
.	16Rf\Jk	16AA'JJ	.	[16aaJk	.	.	16dJJ	.
8Rcc/	8r	16dKL	.	8aaL]	16r	16dKL	16r	.
.	.	8D'	.	.	8.f'	8a'	8c'L	.
8Ree/J	16r	.	.	8aaJ	.	.	.	.
.	16Rf\	16DJk	.	.	.	[16dJk	16AJk	.
8r	8r	16AA'LL	.	[2dd	8.g'L	8dL]	16r	.
.	.	16dJ	.	.	.	.	16DLL	.
8Ree/L	16r	8DJ	.	.	.	8a'	16A	.
.	16Rf\	.	.	.	16eJk	.	16B-JJ	.
8Rcc/	16r	8d'L	.	.	8r	8d	8AL	.
.	8.Rf\	.	.	.	.	.	.	.
8Ree/J	.	8DJ	.	.	8d'	8a'J	8FJ	.
=25	=25	=25	=25	=25	=25	=25	=25	=25
8r	8.Rf\L	8CL	1r	1dd]	16r	8cL	16AAKL	1r
.	.	.	.	.	8.c'	.	8C'	.
8Ree/L	.	8AA'J	.	.	.	8g'J	.	.
.	16Rf\Jk	.	.	.	.	.	16GJk	.
8Rcc/	8r	16CKL	.	.	8.d'L	16cKL	16r	.
.	.	8G'	.	.	.	8g'	8E'L	.
8Ree/J	16r	.	.	.	.	.	.	.
.	16Rf\	16BB-XJk	.	.	16eJk	[16B-Jk	16FJk	.
8r	8r	16BB-LL	.	.	8r	8B-L]	16r	.
.	.	16G'J	.	.	.	.	16DLL	.
8Ree/L	16r	8BB-J	.	.	8f'	8f'	16G	.
.	16Rf\	.	.	.	.	.	16cJJ	.
8Rcc/	16r	8GG'L	.	.	16r	8G	8Bn'L	.
.	8.Rf\	.	.	.	8g'L	.	.	.
8Ree/J	.	8G'J	.	.	.	8g'J	8A'J	.
.	.	.	.	.	16aJk	.	.	.
=26	=26	=26	=26	=26	=26	=26	=26	=26
8r	8.Rf\L	8DL	1r	8.aaL	8r	8dL	16DLL	1r
.	.	.	.	.	.	.	16G	.
8Ree/L	.	16AA'L	.	.	8a'	8a'J	16A	.
.	16Rf\Jk	16AA'JJ	.	[16aaJk	.	.	16dJJ	.
8Rcc/	8r	16dKL	.	8aaL]	16r	16dKL	16r	.
.	.	8D'	.	.	8.f'	8a'	8c'L	.
8Ree/J	16r	.	.	8aaJ	.	.	.	.
.	16Rf\	16DJk	.	.	.	[16dJk	16AJk	.
8r	8r	16AA'LL	.	[2dd	8.g'L	8dL]	16r	.
.	.	16dJ	.	.	.	.	16DLL	.
8Ree/L	16r	8DJ	.	.	.	8a'	16A	.
.	16Rf\	.	.	.	16eJk	.	16B-JJ	.
8Rcc/	16r	8d'L	.	.	8r	8d	8AL	.
.	8.Rf\	.	.	.	.	.	.	.
8Ree/J	.	8DJ	.	.	8d'	8a'J	8FJ	.
=27	=27	=27	=27	=27	=27	=27	=27	=27
8r	8.Rf\L	8BB-XL	1r	1dd]	16r	8B-L	16DKL	1r
.	.	.	.	.	8.c'	.	8F'	.
8Ree/L	.	16AA'L	.	.	.	8f'J	.	.
.	16Rf\Jk	16AA'JJ	.	.	.	.	16AJk	.
8Rcc/	8r	16B-XKL	.	.	8.d'L	16B-KL	16r	.
.	.	8BB-'	.	.	.	8f'	8B-'L	.
8Ree/J	16r	.	.	.	.	.	.	.
.	16Rf\	16CJk	.	.	16eJk	[16AJk	16cJk	.
8r	8r	16r	.	.	8r	8AL]	16r	.
.	.	16GKL	.	.	.	.	16GLL	.
8Ree/L	16r	8CJ	.	.	8f'	8e'	16c	.
.	16Rf\	.	.	.	.	.	16eJJ	.
8Rcc/	16r	8C'L	.	.	16r	8c	8c'L	.
.	8.Rf\	.	.	.	8g'L	.	.	.
8Ree/J	.	8C'J	.	.	.	8g'J	8d'J	.
.	.	.	.	.	16aJk	.	.	.
=28	=28	=28	=28	=28	=28	=28	=28	=28
4r	4Rf\	4D'	1r	1r	1r	1r	4d'	8.A'L
.	.	.	.	.	.	.	.	16GJk
8Rcc/L	8r	8.d'L	.	.	.	.	8.a'L	16GLL
.	.	.	.	.	.	.	.	16F
8Rgg/J	16r	.	.	.	.	.	.	16F
.	16Rf\	16dJk	.	.	.	.	16ffJk	16FJJ
8r	8r	4r	.	.	.	.	16r	16GLL
.	.	.	.	.	.	.	16eeKL	16F
8Rgg/L	16r	.	.	.	.	.	8cc'J	16F
.	16Rf\	.	.	.	.	.	.	16FJJ
8Rcc/	16r	4G'	.	.	.	.	4g	16r
.	8.Rf\	.	.	.	.	.	.	16FLL
8Rgg/J	.	.	.	.	.	.	.	16F
.	.	.	.	.	.	.	.	16GJJ
=29	=29	=29	=29	=29	=29	=29	=29	=29
8r	8.Rf\L	8BB-X'L	1r	1r	1r	1r	16ddKL	16ALL
.	.	.	.	.	.	.	8a'	16G
8Rgg/L	.	8BB-'J	.	.	.	.	.	16G
.	16Rf\Jk	.	.	.	.	.	16ccJk	16GJJ
8Rcc/	8r	8B-X'L	.	.	.	.	8g'L	16GLL
.	.	.	.	.	.	.	.	16F
8Rgg/J	16r	16BB-L	.	.	.	.	16ddL	16F
.	16Rf\	16CJJ	.	.	.	.	16aJJ	16FJJ
8r	8r	16r	.	.	.	.	16r	16GLL
.	.	16AA'KL	.	.	.	.	16ccKL	16F
8Rgg/L	16r	8CJ	.	.	.	.	8g'J	16F
.	16Rf\	.	.	.	.	.	.	16FJJ
8Rcc/	16r	8C'L	.	.	.	.	16ddLL	16r
.	8.Rf\	.	.	.	.	.	16ccJ	16FLL
8Rgg/J	.	16CL	.	.	.	.	8gJ	16F
.	.	16DJJ	.	.	.	.	.	16GJJ
=30	=30	=30	=30	=30	=30	=30	=30	=30
8r	4Rf\	8D'L	1r	1r	1r	1r	8d'L	16ALL
.	.	.	.	.	.	.	.	16A
16Rgg/LL	.	16AA'L	.	.	.	.	16aL	16A
16Rcc/JJ	.	16dJJ	.	.	.	.	16ccJJ	16GJJ
16r	4r	16AA'LL	.	.	.	.	16r	8GL
8Rcc/L	.	16e	.	.	.	.	8ee'L	.
.	.	16AA'	.	.	.	.	.	16GL
16Rcc/Jk	.	16fJJ	.	.	.	.	16ffJk	16GJJ
12Rgg/L	2r	2r	.	.	.	.	16r	16GLL
.	.	.	.	.	.	.	16eeKL	16F
24Rgg/L	.	.	.	.	.	.	.	.
24Rgg/	.	.	.	.	.	.	8cc'J	16F
24Rgg/	.	.	.	.	.	.	.	.
.	.	.	.	.	.	.	.	16FJJ
24Rgg/JJ	.	.	.	.	.	.	.	.
4Rgg/ 4Rbb	.	.	.	.	.	.	8aL	16r
.	.	.	.	.	.	.	.	16FLL
.	.	.	.	.	.	.	8gg'J	16F
.	.	.	.	.	.	.	.	16FJJ
=31	=31	=31	=31	=31	=31	=31	=31	=31
8Raa/L	8.Rf\L	8BB-X'L	1r	1r	1r	1r	8ddL	16FLL
.	.	.	.	.	.	.	.	16F
8Rgg/	.	8BB-'J	.	.	.	.	8aa'J	16F
.	16Rf\Jk	.	.	.	.	.	.	16FJJ
8Rcc/	8r	8B-X'L	.	.	.	.	16ddKL	16FLL
.	.	.	.	.	.	.	8ff'	16F
8Rgg/J	16r	16BB-L	.	.	.	.	.	16F
.	16Rf\	16CJJ	.	.	.	.	16ddJk	16FJJ
8r	8r	16r	.	.	.	.	8gg'L	16FLL
.	.	16AA'KL	.	.	.	.	.	16F
8Rgg/L	16r	8CJ	.	.	.	.	16ddL	16G
.	16Rf\	.	.	.	.	.	[16ffJJ	16FJJ
8Rcc/	16r	8C'L	.	.	.	.	16ffLL]	8F'L
.	8.Rf\	.	.	.	.	.	16ddJ	.
8Rgg/J	.	16CL	.	.	.	.	8ccJ	16FL
.	.	16DJJ	.	.	.	.	.	16FJJ
=32	=32	=32	=32	=32	=32	=32	=32	=32
8r	8.Rf\L	8D'L	1r	1r	1r	1r	8d'L	8dL
8Rgg/L	.	16AA'L	.	.	.	.	16aL	16dL
.	16Rf\Jk	16dJJ	.	.	.	.	16ccJJ	[16dJJ
8Rcc/	8r	16AA'LL	.	.	.	.	16r	16dLL]
.	.	16d	.	.	.	.	8ee'L	16d
8Rgg/J	16r	16AA'	.	.	.	.	.	16d
.	16Rf\	16dJJ	.	.	.	.	16ffJk	[16dJJ
8r	8r	4r	.	.	.	.	16r	16dKL]
.	.	.	.	.	.	.	16eeKL	8c
8Rgg/L	16r	.	.	.	.	.	8cc'J	.
.	16Rf\	.	.	.	.	.	.	16cJk
8Rcc/	16r	16AA'LL	.	.	.	.	4g	8cL
.	8.Rf\	16G'J	.	.	.	.	.	.
8Rgg/J	.	8AA'J	.	.	.	.	.	16cL
.	.	.	.	.	.	.	.	16cJJ
=33	=33	=33	=33	=33	=33	=33	=33	=33
8r	8.Rf\L	8BB-X'L	1r	1r	1r	1r	16ddKL	16dLL
.	.	.	.	.	.	.	8a'	16d
8Rgg/L	.	8BB-'J	.	.	.	.	.	16d
.	16Rf\Jk	.	.	.	.	.	16ccJk	16dJJ
8Rcc/	8r	8B-X'L	.	.	.	.	8g'L	8dL
8Rgg/J	16r	16BB-L	.	.	.	.	16ddL	8dJ
.	16Rf\	16CJJ	.	.	.	.	16aJJ	.
8r	8r	16r	.	.	.	.	16r	16dLL
.	.	16AA'KL	.	.	.	.	16ccKL	16dJ
8Rgg/L	16r	8CJ	.	.	.	.	8g'J	8dJ
.	16Rf\	.	.	.	.	.	.	.
8Rcc/	16r	8C'L	.	.	.	.	16ddLL	8cL
.	8.Rf\	.	.	.	.	.	16ccJ	.
8Rgg/J	.	16CL	.	.	.	.	8gJ	8dJ
.	.	16DJJ	.	.	.	.	.	.
=34	=34	=34	=34	=34	=34	=34	=34	=34
8r	8.Rf\L	8D'L	1r	1r	1r	1r	16fLL	8cL
.	.	.	.	.	.	.	16e	.
8Rgg/L	.	16AA'L	.	.	.	.	16d	8dJ
.	16Rf\Jk	16dJJ	.	.	.	.	16eJJ	.
8Rcc/	8r	16AA'LL	.	.	.	.	16r	16cKL
.	.	16d	.	.	.	.	8fL	8d
8Rgg/J	16r	16AA'	.	.	.	.	.	.
.	16Rf\	16dJJ	.	.	.	.	[16gJk	[16cJk
8r	8r	16r	.	.	.	.	16gLL]	16cLL]
.	.	16AA'LL	.	.	.	.	16ccJ	16cJ
8Ree/L	16r	16d	.	.	.	.	8gJ	8dJ
.	16Rf\	16cJJ	.	.	.	.	.	.
8Rcc/	16r	8AL	.	.	.	.	16r	8cL
.	8.Rf\	.	.	.	.	.	8a'L	.
8Ree/J	.	8DJ	.	.	.	.	.	8cJ
.	.	.	.	.	.	.	16ccJk	.
=35	=35	=35	=35	=35	=35	=35	=35	=35
8r	8.Rf\L	8BB-XL	1r	1r	1r	8B-L	8b-L 8ff	8fL
8Ree/L	.	8BB-J	.	.	.	16B-L	8b-J 8ff	8fJ
.	16Rf\Jk	.	.	.	.	16B-JJ	.	.
8Rcc/	8r	8B-X'L	.	.	.	16B-LL	16b-LL 16ff	8fL
.	.	.	.	.	.	16B-	16b- 16ff	.
8Ree/J	16r	16BB-L	.	.	.	16B-	16b- 16ff	16fL
.	16Rf\	16CJJ	.	.	.	[16cJJ	[16ccJJ [16gg	[16gJJ
8r	8r	16r	.	.	.	16cLL]	16ccLL] 16gg]	16gLL]
.	.	16AA'KL	.	.	.	16c	16cc 16gg	16g
8Ree/L	16r	8CJ	.	.	.	16c	16cc 16gg	16g
.	16Rf\	.	.	.	.	16cJJ	16ccJJ 16gg	16gJJ
8Rcc/	16r	4c 4g	.	.	.	16cLL	16ccLL 16gg	4f
.	8.Rf\	.	.	.	.	16c	16cc 16gg	.
8Ree/J	.	.	.	.	.	16c	16cc 16gg	.
.	.	.	.	.	.	16cJJ	16ccJJ 16gg	.
=36	=36	=36	=36	=36	=36	=36	=36	=36
8Raa/L	8.Rf\L	1r	8DL	1r	1r	8AL 8d	8aL 8dd	8fL
8Rff/J	.	.	16DL	.	.	16AL 16d	16aL 16dd	16fL
.	16Rf\Jk	.	16DJJ	.	.	16AJJ 16d	16aJJ 16dd	[16fJJ
8Rcc/L 8Rff	16r	.	16r	.	.	16r	16r	16fKL]
.	8.Rf\	.	8D'L	.	.	8A'L 8d	8a'L 8dd	8f
16Rff/L	.	.	.	.	.	.	.	.
16Rcc/JJ	.	.	16DJk	.	.	16AJk 16d	16aJk 16dd	16fJk
8Rff/L	8.Rf\L	.	8AAL	.	.	16ALL 16c	16ccLL 16gg	16fLL
.	.	.	.	.	.	16A 16c	16cc 16gg	16f
8Rff/J	.	.	16AAL	.	.	16A 16c	16cc 16gg	16f
.	16Rf\Jk	.	16AAJJ	.	.	16AJJ 16c	16ccJJ 16gg	[16fJJ
8Rcc/L 8Rff	16r	.	16r	.	.	16r	16r	16fKL]
.	8.Rf\	.	8AA'L	.	.	8A'L 8c	8cc'L 8gg	8f
16Rff/L	.	.	.	.	.	.	.	.
16Rcc/JJ	.	.	16AAJk	.	.	16AJk 16c	16ccJk 16gg	16fJk
=37	=37	=37	=37	=37	=37	=37	=37	=37
8Rff/L	8.Rf\L	1r	8BB-L	1r	1r	16B-LL 16d	16b-LL 16ff	16fLL
.	.	.	.	.	.	16B- 16d	16b- 16ff	16f
8Rff/J	.	.	16BB-L	.	.	16B- 16d	16b- 16ff	16f
.	16Rf\Jk	.	16BB-JJ	.	.	16B-JJ 16d	16b-JJ 16ff	16fJJ
8Rcc/L 8Rff	16r	.	16r	.	.	16r	16r	16fKL
.	8.Rf\	.	8BB-'L	.	.	8B-'L 8d	8b-'L 8ff	8f
16Rff/L	.	.	.	.	.	.	.	.
16Rcc/JJ	.	.	16BB-Jk	.	.	16B-Jk 16d	16b-Jk 16ff	16fJk
16Rff/LL	8.Rf\L	.	16BB-LL	.	.	16cLL 16e	16ccLL 16gg	4a
16Rcc/J	.	.	16BB-	.	.	16c 16e	16cc 16gg	.
8Rff/J	.	.	16BB-	.	.	16c 16e	16cc 16gg	.
.	16Rf\Jk	.	16BB-JJ	.	.	16cJJ 16f	16ccJJ 16aa	.
8Rcc/L 8Rff	16r	.	16CLL	.	.	16cLL 16e	16ccLL 16gg	16gKL
.	8.Rf\	.	16C	.	.	16cJ 16e	16ccJ 16gg	8f
16Rff/L	.	.	16C	.	.	8cJ 8e	8ccJ 8gg	.
16Rcc/JJ	.	.	16CJJ	.	.	.	.	16fJk
=38	=38	=38	=38	=38	=38	=38	=38	=38
8Raa/L	8.Rf\L	1r	8DL	1r	1r	8AL 8d	8aL 8dd	16fLL
.	.	.	.	.	.	.	.	16f
8Rff/J	.	.	16DL	.	.	16AL 16d	16aL 16dd	16f
.	16Rf\Jk	.	16DJJ	.	.	16AJJ 16d	16aJJ 16dd	[16fJJ
8Rcc/L 8Rff	16r	.	16r	.	.	16r	16r	16fKL]
.	8.Rf\	.	8D'L	.	.	8A'L 8d	8a'L 8dd	8f
16Rff/L	.	.	.	.	.	.	.	.
16Rcc/JJ	.	.	16DJk	.	.	16AJk 16d	16aJk 16dd	16fJk
8Rff/L	8.Rf\L	.	8AAL	.	.	8AL 8c	8ddL 8aa	8fL
8Rff/J	.	.	16AAL	.	.	16AL 16c	16ddL 16aa	16fL
.	16Rf\Jk	.	16AAJJ	.	.	16AJJ 16c	16ddJJ 16aa	[16fJJ
8Rcc/L 8Rff	16r	.	16r	.	.	16r	16r	16fKL]
.	8.Rf\	.	8AA'L	.	.	8A'L 8c	8dd'L 8aa	8f
16Rff/L	.	.	.	.	.	.	.	.
16Rcc/JJ	.	.	16AAJk	.	.	16AJk 16c	16ddJk 16aa	16fJk
=39	=39	=39	=39	=39	=39	=39	=39	=39
8Rff/L	8.Rf\L	1r	8BB-L	1r	1r	8B-L 8d	8b-L 8ff	16fLL
.	.	.	.	.	.	.	.	16f
8Rff/J	.	.	16BB-L	.	.	16B-L 16d	16b-L 16ff	16f
.	16Rf\Jk	.	16BB-JJ	.	.	16B-JJ 16d	16b-JJ 16ff	16fJJ
8Rcc/L 8Rff	16r	.	16r	.	.	16r	16r	16fKL
.	8.Rf\	.	8BB-'L	.	.	8B-'L 8d	8b-'L 8ff	8f
16Rff/L	.	.	.	.	.	.	.	.
16Rcc/JJ	.	.	16BB-Jk	.	.	16B-Jk 16d	16b-Jk 16ff	16fJk
16Rff/LL	8.Rf\L	.	16BB-LL	.	.	4A	16aLL 16ee	4a
16Rcc/J	.	.	16BB-	.	.	.	16a 16ee	.
8Rff/J	.	.	16BB-	.	.	.	16a 16ee	.
.	16Rf\Jk	.	16BB-JJ	.	.	.	16aJJ 16ee	.
8Rcc/L 8Rff	16r	.	16CLL	.	.	4d	16ddLL 16aa	8.gL
.	8.Rf\	.	16C	.	.	.	16ddJ 16aa	.
16Rff/L	.	.	16C	.	.	.	8ddJ 8aa	.
16Rcc/JJ	.	.	16CJJ	.	.	.	.	16fJk
=40	=40	=40	=40	=40	=40	=40	=40	=40
8Raa/L	8.Rf\L	1r	8DL	1r	1r	8AL 8d	8aL 8dd	16fLL
.	.	.	.	.	.	.	.	16f
8Rff/J	.	.	16DL	.	.	16AL 16d	16aL 16dd	16f
.	16Rf\Jk	.	16DJJ	.	.	16AJJ 16d	16aJJ 16dd	[16fJJ
8Rcc/L 8Rff	16r	.	16r	.	.	16r	16r	16fKL]
.	8.Rf\	.	8D'L	.	.	8A'L 8d	8a'L 8dd	8f
16Rff/L	.	.	.	.	.	.	.	.
16Rcc/JJ	.	.	16DJk	.	.	16AJk 16d	16aJk 16dd	16fJk
8Rff/L	8.Rf\L	.	8AAL	.	.	16ALL 16c	16ccLL 16gg	8fL
.	.	.	.	.	.	16A 16c	16cc 16gg	.
8Rff/J	.	.	16AAL	.	.	16A 16c	16cc 16gg	16fL
.	16Rf\Jk	.	16AAJJ	.	.	16AJJ 16c	16ccJJ 16gg	[16fJJ
8Rcc/L 8Rff	16r	.	16r	.	.	16r	16r	16fKL]
.	8.Rf\	.	8AA'L	.	.	8A'L 8c	8cc'L 8gg	8f
16Rff/L	.	.	.	.	.	.	.	.
16Rcc/JJ	.	.	16AAJk	.	.	16AJk 16c	16ccJk 16gg	16fJk
=41	=41	=41	=41	=41	=41	=41	=41	=41
8Rff/L	8.Rf\L	1r	8BB-L	1r	1r	16B-LL 16d	16b-LL 16ff	16fLL
.	.	.	.	.	.	16B- 16d	16b- 16ff	16f
8Rff/J	.	.	16BB-L	.	.	16B- 16d	16b- 16ff	16f
.	16Rf\Jk	.	16BB-JJ	.	.	16B-JJ 16d	16b-JJ 16ff	16fJJ
8Rcc/L 8Rff	16r	.	16r	.	.	16r	16r	16fKL
.	8.Rf\	.	8BB-'L	.	.	8B-'L 8d	8b-'L 8ff	8f
16Rff/L	.	.	.	.	.	.	.	.
16Rcc/JJ	.	.	16BB-Jk	.	.	16B-Jk 16d	16b-Jk 16ff	16fJk
16Rff/LL	8.Rf\L	.	16BB-LL	.	.	16cLL 16e	16ccLL 16gg	4a
16Rcc/J	.	.	16BB-	.	.	16c 16e	16cc 16gg	.
8Rff/J	.	.	16BB-	.	.	16c 16e	16cc 16gg	.
.	16Rf\Jk	.	16BB-JJ	.	.	16cJJ 16f	16ccJJ 16aa	.
8Rcc/L 8Rff	16r	.	16CLL	.	.	16cLL 16e	16ccLL 16gg	8.gL
.	8.Rf\	.	16C	.	.	16cJ 16e	16ccJ 16gg	.
16Rff/L	.	.	16C	.	.	8cJ 8e	8ccJ 8gg	.
16Rcc/JJ	.	.	16CJJ	.	.	.	.	16fJk
=42	=42	=42	=42	=42	=42	=42	=42	=42
8Raa/L	8.Rf\L	1r	8DL	1r	1r	8AL 8d	8aL 8dd	16fLL
.	.	.	.	.	.	.	.	16f
8Rff/J	.	.	16DL	.	.	16AL 16d	16aL 16dd	16f
.	16Rf\Jk	.	16DJJ	.	.	16AJJ 16d	16aJJ 16dd	[16fJJ
8Rcc/L 8Rff	16r	.	16r	.	.	16r	16r	16fKL]
.	8.Rf\	.	8D'L	.	.	8A'L 8d	8a'L 8dd	8f
16Rff/L	.	.	.	.	.	.	.	.
16Rcc/JJ	.	.	16DJk	.	.	16AJk 16d	16aJk 16dd	16fJk
8Rff/L	8.Rf\L	.	8AL	.	.	8AL 8c	8ddL 8aa	8fL
8Rff/J	.	.	16AL	.	.	16AL 16c	16ddL 16aa	16fL
.	16Rf\Jk	.	[16AJJ	.	.	16AJJ 16c	16ddJJ 16aa	[16fJJ
8Rcc/L 8Rff	16r	.	16AKL]	.	.	16r	16r	16fKL]
.	8.Rf\	.	8A	.	.	8A'L 8c	8dd'L 8aa	8f
16Rff/L	.	.	.	.	.	.	.	.
16Rcc/JJ	.	.	16AJk	.	.	16AJk 16c	16ddJk 16aa	16fJk
=43	=43	=43	=43	=43	=43	=43	=43	=43
8Rff/L	8.Rf\L	1r	16B-LL	1r	1r	16B-LL 16d	16b-LL 16ff	16fKL
.	.	.	16B-	.	.	16B- 16d	16b- 16ff	8f
8Rff/J	.	.	16B-	.	.	16B- 16d	16b- 16ff	.
.	16Rf\Jk	.	[16B-JJ	.	.	16B-JJ 16d	16b-JJ 16ff	[16fJk
8Rcc/L 8Rff	16r	.	16B-KL]	.	.	16r	16r	16fLL]
.	8.Rf\	.	8B-	.	.	8B-'L 8d	8b-'L 8ff	16fJ
16Rff/L	.	.	.	.	.	.	.	8gJ
16Rcc/JJ	.	.	16B-Jk	.	.	16B-Jk 16d	16b-Jk 16ff	.
16Rff/LL	8.Rf\L	.	16B-LL	.	.	4A	16aLL 16ee	4a
16Rcc/J	.	.	16B-	.	.	.	16a 16ee	.
8Rff/J	.	.	16A	.	.	.	16a 16ee	.
.	16Rf\Jk	.	16B-JJ	.	.	.	16aJJ 16ee	.
8Rcc/L 8Rff	16r	.	8cL	.	.	4d	16ddLL 16aa	8gL
.	8.Rf\	.	.	.	.	.	16dd 16aa	.
16Rff/L	.	.	8GJ	.	.	.	16dd 16aa	8fJ
16Rcc/JJ	.	.	.	.	.	.	16ddJJ 16aa	.
=44	=44	=44	=44	=44	=44	=44	=44	=44
8Raa/L	8.Rf\L	8.D'L	1r	1r	1r	1r	4.ff	4f'
8Rff/	.	.	.	.	.	.	.	.
.	16Rf\Jk	16CJk	.	.	.	.	.	.
8Rff/	4r	8r	.	.	.	.	.	4r
8Rcc/J 8Raa	.	8F'	.	.	.	.	[8dd	.
8Rff/L	16r	16r	.	.	.	.	4dd]	2r
.	8.Rf\	8.C'	.	.	.	.	.	.
8Rff/	.	.	.	.	.	.	.	.
8Rcc/ 8Rff	4r	8D'L	.	.	.	.	4ee	.
8Rff/J	.	16cL	.	.	.	.	.	.
.	.	16dJJ	.	.	.	.	.	.
=45	=45	=45	=45	=45	=45	=45	=45	=45
8Rff/L	4Rf\	8r	1r	1r	1r	1r	4.ff	1r
8Rcc/J 8Raa	.	8D'	.	.	.	.	.	.
16Rff/LL	8r	16r	.	.	.	.	.	.
16Rcc/J	.	8.C'	.	.	.	.	.	.
8Rff/J	16r	.	.	.	.	.	[8dd	.
.	16Rf\	.	.	.	.	.	.	.
8Rcc/L 8Rff	16r	8.F'L	.	.	.	.	4dd]	.
.	8Rf\L	.	.	.	.	.	.	.
8Rff/	.	.	.	.	.	.	.	.
.	16Rf\Jk	16CJk	.	.	.	.	.	.
8Rcc/ 8Rff	16r	8r	.	.	.	.	4ee	.
.	8Rf\L	.	.	.	.	.	.	.
8Rff/J	.	8AA'	.	.	.	.	.	.
.	16Rf\Jk	.	.	.	.	.	.	.
=46	=46	=46	=46	=46	=46	=46	=46	=46
8Rcc/L 8Raa	8r	8.D'L	1r	1r	1r	1r	4.ff	1r
16Rff/L	8Rf\	.	.	.	.	.	.	.
16Rcc/JJ	.	16CJk	.	.	.	.	.	.
8Rff/L	16r	8r	.	.	.	.	.	.
.	8.Rf\	.	.	.	.	.	.	.
8Rcc/J 8Rff	.	8F'	.	.	.	.	[8dd	.
16Rff/LL	8.Rf\L	16r	.	.	.	.	4dd]	.
16Rcc/J	.	8.C'	.	.	.	.	.	.
8Rff/J	.	.	.	.	.	.	.	.
.	16Rf\Jk	.	.	.	.	.	.	.
8Rff/L	8r	8.D'L	.	.	.	.	4ee	.
16Rff/L	8Rf\	.	.	.	.	.	.	.
16Rcc/JJ	.	16AJk	.	.	.	.	.	.
=47	=47	=47	=47	=47	=47	=47	=47	=47
8Rff/L	16r	8r	1r	1r	1r	1r	4ff	1r
.	8.Rf\	.	.	.	.	.	.	.
8Rcc/J 8Raa	.	8c'	.	.	.	.	.	.
16Rff/LL	8.Rf\L	16r	.	.	.	.	8eeL	.
16Rcc/J	.	8.d'	.	.	.	.	.	.
8Rff/J	.	.	.	.	.	.	[8ddJ	.
.	16Rf\Jk	.	.	.	.	.	.	.
8Rcc/L 8Rff	16r	8.f'L	.	.	.	.	2dd]	.
.	8Rf\L	.	.	.	.	.	.	.
8Rff/J	.	.	.	.	.	.	.	.
.	16Rf\Jk	16gJk	.	.	.	.	.	.
4Rcc/ 4Raa	4r	8r	.	.	.	.	.	.
.	.	8a'	.	.	.	.	.	.
=48	=48	=48	=48	=48	=48	=48	=48	=48
8Raa/L	8.Rf\L	1r	8r	1r	1r	1r	16AALL	16ALL
.	.	.	.	.	.	.	16D	16G
8Rgg/	.	.	8d'	.	.	.	16A	16G
.	16Rf\Jk	.	.	.	.	.	16dJJ	16GJJ
8Rcc/	8r	.	16r	.	.	.	16r	16GLL
.	.	.	8.c'	.	.	.	8e'L	16G
8Rgg/J	16r	.	.	.	.	.	.	16G
.	16Rf\	.	.	.	.	.	16fJk	16GJJ
8r	8r	.	8.d'L	.	.	.	16r	16GLL
.	.	.	.	.	.	.	16eKL	16F
8Rgg/L	16r	.	.	.	.	.	8d'J	16F
.	16Rf\	.	16eJk	.	.	.	.	16FJJ
8Rcc/	16r	.	8r	.	.	.	4A	16r
.	8.Rf\	.	.	.	.	.	.	16FLL
8Rgg/J	.	.	8f'	.	.	.	.	16F
.	.	.	.	.	.	.	.	16GJJ
=49	=49	=49	=49	=49	=49	=49	=49	=49
8r	8.Rf\L	1r	8r	1r	1r	1r	16AALL	16ALL
.	.	.	.	.	.	.	16BB-	16G
8Rgg/L	.	.	8a'	.	.	.	16B-	16G
.	16Rf\Jk	.	.	.	.	.	16dJJ	16GJJ
8Rcc/	8r	.	16r	.	.	.	16r	16GLL
.	.	.	8.f'	.	.	.	8B-'L	16G
8Rgg/J	16r	.	.	.	.	.	.	16G
.	16Rf\	.	.	.	.	.	16AAJk	16GJJ
8r	8r	.	8.g'L	.	.	.	16CLL	16GLL
.	.	.	.	.	.	.	16cJ	16F
8Rgg/L	16r	.	.	.	.	.	8f'J	16F
.	16Rf\	.	16eJk	.	.	.	.	16FJJ
8Rcc/	16r	.	8r	.	.	.	4e	16r
.	8.Rf\	.	.	.	.	.	.	16FLL
8Rgg/J	.	.	8d'	.	.	.	.	16G
.	.	.	.	.	.	.	.	16AJJ
=50	=50	=50	=50	=50	=50	=50	=50	=50
8r	8.Rf\L	1r	8r	1r	1r	1r	16AALL	8GL
.	.	.	.	.	.	.	16D	.
8Rgg/L	.	.	8d'	.	.	.	16A	16GL
.	16Rf\Jk	.	.	.	.	.	16dJJ	16GJJ
8Rcc/	8r	.	16r	.	.	.	16r	8GL
.	.	.	8.c'	.	.	.	8e'L	.
8Rgg/J	16r	.	.	.	.	.	.	16GL
.	16Rf\	.	.	.	.	.	16fJk	16GJJ
8r	8r	.	8.d'L	.	.	.	16r	16GLL
.	.	.	.	.	.	.	16eKL	16F
8Rgg/L	16r	.	.	.	.	.	8gJ	16F
.	16Rf\	.	16eJk	.	.	.	.	16FJJ
8Rcc/	16r	.	8r	.	.	.	8eL	16r
.	8.Rf\	.	.	.	.	.	.	16FLL
8Rgg/J	.	.	8f'	.	.	.	8dJ	16F
.	.	.	.	.	.	.	.	16FJJ
=51	=51	=51	=51	=51	=51	=51	=51	=51
8r	8.Rf\L	1r	8r	1r	1r	1r	16AALL	16r
.	.	.	.	.	.	.	16BB-	8FL
8Rgg/L	.	.	8a'	.	.	.	16B-	.
.	16Rf\Jk	.	.	.	.	.	16dJJ	16FJk
8Rcc/	8r	.	16r	.	.	.	16r	8FL
.	.	.	8.f'	.	.	.	8B-'L	.
8Rgg/J	16r	.	.	.	.	.	.	16FL
.	16Rf\	.	.	.	.	.	16AAJk	16FJJ
8r	8r	.	4g	.	.	.	16CLL	16GLL
.	.	.	.	.	.	.	16cJ	16F
8Rgg/L	16r	.	.	.	.	.	8f'J	16F
.	16Rf\	.	.	.	.	.	.	16FJJ
8Rcc/	16r	.	4cc	.	.	.	8eL	16r
.	8.Rf\	.	.	.	.	.	.	8FL
8Rgg/J	.	.	.	.	.	.	8cJ	.
.	.	.	.	.	.	.	.	16GJk
=52	=52	=52	=52	=52	=52	=52	=52	=52
8r	8.Rf\L	1r	8r	1r	1r	1r	16AALL	8AL
.	.	.	.	.	.	.	16D	.
8Rgg/L	.	.	8d'	.	.	.	16A	16GL
.	16Rf\Jk	.	.	.	.	.	16dJJ	[16GJJ
8Rcc/	8r	.	16r	.	.	.	16r	16GLL]
.	.	.	8.c'	.	.	.	8e'L	16G
8Rgg/J	16r	.	.	.	.	.	.	16G
.	16Rf\	.	.	.	.	.	16fJk	[16GJJ
8r	8r	.	8.d'L	.	.	.	16r	16GLL]
.	.	.	.	.	.	.	16eKL	16G
8Rgg/L	16r	.	.	.	.	.	8d'J	16G
.	16Rf\	.	16eJk	.	.	.	.	16FJJ
8Rcc/	16r	.	8r	.	.	.	4A	16FLL
.	8.Rf\	.	.	.	.	.	.	16F
8Rgg/J	.	.	8f'	.	.	.	.	16F
.	.	.	.	.	.	.	.	16FJJ
=53	=53	=53	=53	=53	=53	=53	=53	=53
8r	8.Rf\L	1r	8r	1r	1r	1r	16AALL	8AL
.	.	.	.	.	.	.	16BB-	.
8Rgg/L	.	.	8a'	.	.	.	16B-	16GL
.	16Rf\Jk	.	.	.	.	.	16dJJ	16GJJ
8Rcc/	8r	.	16r	.	.	.	16r	16GKL
.	.	.	8.f'	.	.	.	8B-'L	8G
8Rgg/J	16r	.	.	.	.	.	.	.
.	16Rf\	.	.	.	.	.	16AAJk	16GJk
8r	8r	.	8.g'L	.	.	.	16CLL	16GLL
.	.	.	.	.	.	.	16cJ	16G
8Rgg/L	16r	.	.	.	.	.	8f'J	16G
.	16Rf\	.	16eJk	.	.	.	.	16FJJ
8Rcc/	16r	.	8r	.	.	.	8eL	16FKL
.	8.Rf\	.	.	.	.	.	.	8F
8Rgg/J	.	.	8d'	.	.	.	8cJ	.
.	.	.	.	.	.	.	.	16GJk
=54	=54	=54	=54	=54	=54	=54	=54	=54
8r	8.Rf\L	1r	8r	1r	1r	1r	16AALL	8AL
.	.	.	.	.	.	.	16D	.
8Rgg/L	.	.	8d'	.	.	.	16A	16GL
.	16Rf\Jk	.	.	.	.	.	16dJJ	16GJJ
8Rcc/	8r	.	16r	.	.	.	16r	16GLL
.	.	.	8.c'	.	.	.	8e'L	16F
8Rgg/J	16r	.	.	.	.	.	.	16F
.	16Rf\	.	.	.	.	.	16fJk	16FJJ
8r	8r	.	8.d'L	.	.	.	16r	16GLL
.	.	.	.	.	.	.	16eKL	16GJ
8Rgg/L	16r	.	.	.	.	.	8gJ	8GJ
.	16Rf\	.	16eJk	.	.	.	.	.
8Rcc/	16r	.	8r	.	.	.	8e'L	8GL
.	8.Rf\	.	.	.	.	.	.	.
8Rgg/J	.	.	8f'	.	.	.	8d'J	8FJ
=55	=55	=55	=55	=55	=55	=55	=55	=55
8r	8.Rf\L	1r	4d	1r	1r	1r	16AALL	8GL
.	.	.	.	.	.	.	16BB-	.
8Rgg/L	.	.	.	.	.	.	16B-	8F
.	16Rf\Jk	.	.	.	.	.	16dJJ	.
8Rcc/	8r	.	4a	.	.	.	16r	8G
.	.	.	.	.	.	.	8B-'L	.
8Rgg/J	16r	.	.	.	.	.	.	8FJ
.	16Rf\	.	.	.	.	.	16AAJk	.
8r	8r	.	4g	.	.	.	16CLL	8GL
.	.	.	.	.	.	.	16cJ	.
8Rgg/L	16r	.	.	.	.	.	8f'J	8FJ
.	16Rf\	.	.	.	.	.	.	.
8Rcc/	16r	.	4e	.	.	.	8eL	16GLL
.	8.Rf\	.	.	.	.	.	.	16GJ
8Rgg/J	.	.	.	.	.	.	8cJ	8FJ
=56	=56	=56	=56	=56	=56	=56	=56	=56
8Raa/L	8.Rf\L	8DL	1r	1r	1r	8r	16AALL	8AL
.	.	.	.	.	.	.	16D	.
8Ree/	.	8d'J	.	.	.	8a'	16A	8GJ
.	16Rf\Jk	.	.	.	.	.	16dJJ	.
8Rcc/	8r	16DKL	.	.	.	16r	16r	8GL
.	.	8D'	.	.	.	8.f'	8e'L	.
8Ree/J	16r	.	.	.	.	.	.	16FL
.	16Rf\	16dJk	.	.	.	.	16fJk	[16AJJ
8r	8r	2r	.	.	.	8.g'L	16r	16ALL]
.	.	.	.	.	.	.	16eKL	16G
8Ree/L	16r	.	.	.	.	.	8d'J	16G
.	16Rf\	.	.	.	.	16eJk	.	16GJJ
8Rcc/	16r	.	.	.	.	8r	4A	8GL
.	8.Rf\	.	.	.	.	.	.	.
8Ree/J	.	.	.	.	.	8d'	.	16FL
.	.	.	.	.	.	.	.	16AJJ
=57	=57	=57	=57	=57	=57	=57	=57	=57
8r	8.Rf\L	16AALL	1r	1r	1r	8r	16AALL	16ALL
.	.	16BB-X	.	.	.	.	16BB-	16G
8Ree/L	.	16B-X	.	.	.	8d'	16B-	16G
.	16Rf\Jk	16BB-JJ	.	.	.	.	16dJJ	16GJJ
8Rcc/	8r	16BB-KL	.	.	.	16r	16r	8GL
.	.	8BB-	.	.	.	8.c'	8B-'L	.
8Ree/J	16r	.	.	.	.	.	.	16FL
.	16Rf\	16cJk	.	.	.	.	16AAJk	[16AJJ
8r	8r	8CL	.	.	.	8.d'L	16CLL	16ALL]
.	.	.	.	.	.	.	16cJ	16GJ
8Ree/L	16r	8c'J	.	.	.	.	8f'J	8GJ
.	16Rf\	.	.	.	.	16eJk	.	.
8Rcc/	16r	8CL	.	.	.	8r	8eL	16FLL
.	8.Rf\	.	.	.	.	.	.	16F
8Ree/J	.	16CL	.	.	.	8f'	8cJ	16F
.	.	16cJJ	.	.	.	.	.	16GJJ
=58	=58	=58	=58	=58	=58	=58	=58	=58
8r	8.Rf\L	16DLL	1r	1r	1r	8r	16AALL	8AL
.	.	16DJ	.	.	.	.	16D	.
8Ree/L	.	8d'J	.	.	.	8a'	16A	8GJ
.	16Rf\Jk	.	.	.	.	.	16dJJ	.
8Rcc/	8r	16DKL	.	.	.	16r	16r	8GL
.	.	8D	.	.	.	8.f'	8e'L	.
8Ree/J	16r	.	.	.	.	.	.	16FL
.	16Rf\	16dJk	.	.	.	.	16fJk	[16AJJ
8r	8r	4r	.	.	.	8.g'L	16r	16ALL]
.	.	.	.	.	.	.	16eKL	16G
8Ree/L	16r	.	.	.	.	.	8gJ	16G
.	16Rf\	.	.	.	.	16eJk	.	16GJJ
8Rcc/	16r	8r	.	.	.	8r	8eL	8GL
.	8.Rf\	.	.	.	.	.	.	.
8Ree/J	.	8AA'	.	.	.	8d'	8dJ	16FL
.	.	.	.	.	.	.	.	16FJJ
=59	=59	=59	=59	=59	=59	=59	=59	=59
8r	8.Rf\L	16AALL	1r	1r	1r	8r	16AALL	8AL
.	.	16BB-X	.	.	.	.	16BB-	.
8Ree/L	.	16B-X	.	.	.	8d'	16B-	16GL
.	16Rf\Jk	16BB-JJ	.	.	.	.	16dJJ	16GJJ
8Rcc/	8r	16BB-KL	.	.	.	16r	16r	8GL
.	.	8BB-	.	.	.	8.c'	8B-'L	.
8Ree/J	16r	.	.	.	.	.	.	16FL
.	16Rf\	16cJk	.	.	.	.	16AAJk	[16AJJ
8r	8r	8CL	.	.	.	8d'L	16CLL	16ALL]
.	.	.	.	.	.	.	16cJ	16GJ
8Ree/L	16r	8c'J	.	.	.	16fL	8f'J	8GJ
.	16Rf\	.	.	.	.	[16eJJ	.	.
8Rcc/	16r	8CL	.	.	.	8eL]	8eL	16GKL
.	8.Rf\	.	.	.	.	.	.	8F
8Ree/J	.	16CL	.	.	.	8f'J	8cJ	.
.	.	16cJJ	.	.	.	.	.	16GJk
=60	=60	=60	=60	=60	=60	=60	=60	=60
*	*	*	*	*	*	*	*	*^
8Raa/L	8.Rf\L	8DL	1r	1r	1r	8r	16AALL	2r	16ALL
.	.	.	.	.	.	.	16D	.	16GJ
8Ree/	.	8d'J	.	.	.	8a'	16A	.	8GJ
.	16Rf\Jk	.	.	.	.	.	16dJJ	.	.
8Rcc/	8r	16DKL	.	.	.	16r	16r	.	8GL
.	.	8D	.	.	.	8.f'	8e'L	.	.
8Ree/J	16r	.	.	.	.	.	.	.	16FL
.	16Rf\	16dJk	.	.	.	.	16fJk	.	[16AJJ
8r	8r	4r	.	.	.	8.g'L	16r	8r	16AKL]
.	.	.	.	.	.	.	16eKL	.	8G
8Ree/L	16r	.	.	.	.	.	8d'J	16r	.
.	16Rf\	.	.	.	.	16eJk	.	16r	[16GJk
8Rcc/	16r	16r	.	.	.	8r	4A	4r	16GLL]
.	8.Rf\	16EE'LL	.	.	.	.	.	.	16F
8Ree/J	.	16GG	.	.	.	8d'	.	.	16F
.	.	16AAJJ	.	.	.	.	.	.	16FJJ
*	*	*	*	*	*	*	*	*v	*v
=61	=61	=61	=61	=61	=61	=61	=61	=61
8r	8.Rf\L	16AALL	1r	1r	1r	8r	16AALL	8AL
.	.	16BB-XJ	.	.	.	.	16BB-	.
8Ree/L	.	8B-XJ	.	.	.	8d'	16B-	8GJ
.	16Rf\Jk	.	.	.	.	.	16dJJ	.
8Rcc/	8r	16BB-KL	.	.	.	16r	16r	8GL
.	.	8BB-	.	.	.	8.c'	8B-'L	.
8Ree/J	16r	.	.	.	.	.	.	16FL
.	16Rf\	16cJk	.	.	.	.	16AAJk	[16AJJ
8r	8r	8CL	.	.	.	8d'L	16CLL	16ALL]
.	.	.	.	.	.	.	16cJ	16GJ
8Ree/L	16r	8c'J	.	.	.	16fL	8f'J	8GJ
.	16Rf\	.	.	.	.	[16eJJ	.	.
8Rcc/	16r	16CKL	.	.	.	8eL]	8eL	16FLL
.	8.Rf\	8C	.	.	.	.	.	16F
8Ree/J	.	.	.	.	.	8f'J	8cJ	16F
.	.	16cJk	.	.	.	.	.	16GJJ
=62	=62	=62	=62	=62	=62	=62	=62	=62
8r	8.Rf\L	8DL	1r	1r	1r	8r	16AALL	8AL
.	.	.	.	.	.	.	16D	.
8Ree/L	.	8d'J	.	.	.	8a'	16A	8GJ
.	16Rf\Jk	.	.	.	.	.	16dJJ	.
8Rcc/	8r	16DKL	.	.	.	16r	16r	8GL
.	.	8D	.	.	.	8.f'	8e'L	.
8Ree/J	16r	.	.	.	.	.	.	16FL
.	16Rf\	16dJk	.	.	.	.	16fJk	[16AJJ
8r	8r	2r	.	.	.	8.g'L	16r	16AKL]
.	.	.	.	.	.	.	16eKL	8G
8Ree/L	16r	.	.	.	.	.	8gJ	.
.	16Rf\	.	.	.	.	16eJk	.	16FJk
8Rcc/	16r	.	.	.	.	8r	8eL	8GL
.	8.Rf\	.	.	.	.	.	.	.
8Ree/J	.	.	.	.	.	8d'	8dJ	8FJ
=63	=63	=63	=63	=63	=63	=63	=63	=63
8r	8.Rf\L	8BB-XL	1r	1r	1r	8r	16AALL	8FL
.	.	.	.	.	.	.	16BB-	.
8Ree/L	.	8B-X'	.	.	.	8d'	16B-	8c
.	16Rf\Jk	.	.	.	.	.	16dJJ	.
8Rcc/	8r	8BB-	.	.	.	16r	16r	8A
.	.	.	.	.	.	8.c'	8B-'L	.
8Ree/J	16r	8B-'J	.	.	.	.	.	8dJ
.	16Rf\	.	.	.	.	.	16AAJk	.
8r	8r	8CL	.	.	.	8d'L	16CLL	8cL
.	.	.	.	.	.	.	16cJ	.
8Ree/L	16r	8c'J	.	.	.	16fL	8f'J	8dJ
.	16Rf\	.	.	.	.	[16eJJ	.	.
8Rcc/	16r	8CL	.	.	.	8eL]	8eL	4c'
.	8.Rf\	.	.	.	.	.	.	.
8Ree/J	.	16cL	.	.	.	8f'J	8cJ	.
.	.	16dJJ	.	.	.	.	.	.
=64	=64	=64	=64	=64	=64	=64	=64	=64
8Raa/L	8.Rf\L	8DL	1r	1r	1r	8d'L	16r	16dLL
.	.	.	.	.	.	.	8ff'L	16c
8Ree/	.	8dJ	.	.	.	16cL	.	16c
.	16Rf\Jk	.	.	.	.	16dJJ	16ffJk	16cJJ
8Rcc/	8r	16DKL	.	.	.	16r	16r	16dKL
.	.	8D	.	.	.	8c'L	8cc'L	8d
8Ree/J	16r	.	.	.	.	.	.	.
.	16Rf\	16cJk	.	.	.	16dJk	16ccJk	16cJk
8r	8r	16dLL	.	.	.	8r	16r	16dLL
.	.	16AA'J	.	.	.	.	8g'L	16d
8Ree/L	16r	8DJ	.	.	.	8c'L	.	16d
.	16Rf\	.	.	.	.	.	16gJk	16cJJ
8Rcc/	16r	16dLL	.	.	.	8d'	8f'L	8dL
.	8.Rf\	16c	.	.	.	.	.	.
8Ree/J	.	16d	.	.	.	8e'J	16cL	16dL
.	.	16cJJ	.	.	.	.	16dJJ	16cJJ
=65	=65	=65	=65	=65	=65	=65	=65	=65
8r	8.Rf\L	8.BB-XL	1r	1r	1r	8f'L	16r	8dL
.	.	.	.	.	.	.	8dd'L	.
8Ree/L	.	.	.	.	.	16eL	.	8dJ
.	16Rf\Jk	16BB-Jk	.	.	.	16fJJ	16ddJk	.
8Rcc/	8r	16BB-KL	.	.	.	16r	16r	8dL
.	.	8BB-	.	.	.	8e'L	8a'L	.
8Ree/J	16r	.	.	.	.	.	.	16dL
.	16Rf\	16cJk	.	.	.	16fJk	16ccJk	16dJJ
8r	8r	8CL	.	.	.	8r	16r	16dLL
.	.	.	.	.	.	.	8a'L	16d
8Ree/L	16r	16cL	.	.	.	8g'L	.	16d
.	16Rf\	16CJJ	.	.	.	.	16gJk	16dJJ
8Rcc/	16r	16r	.	.	.	8f'	8f'L	8cL
.	8.Rf\	16AA'LL	.	.	.	.	.	.
8Ree/J	.	16c	.	.	.	8e'J	16cL	8dJ
.	.	16dJJ	.	.	.	.	16dJJ	.
=66	=66	=66	=66	=66	=66	=66	=66	=66
8Raa/L	8.Rf\L	8DL	1r	1r	1r	8d'L	16r	16dLL
.	.	.	.	.	.	.	8ff'L	16c
8Ree/	.	8dJ	.	.	.	16cL	.	16c
.	16Rf\Jk	.	.	.	.	16dJJ	16ffJk	16cJJ
8Rcc/	8r	16DKL	.	.	.	16r	16r	16dLL
.	.	8D	.	.	.	8c'L	8cc'L	16c
8Ree/J	16r	.	.	.	.	.	.	16c
.	16Rf\	16dJk	.	.	.	16dJk	16ccJk	16cJJ
8r	8r	16r	.	.	.	8r	16r	16dKL
.	.	16CKL	.	.	.	.	8g'L	8d
8Ree/L	16r	8CJ	.	.	.	8c'L	.	.
.	16Rf\	.	.	.	.	.	16gJk	16dJk
8Rcc/	16r	8FL	.	.	.	8d'	8f'L	8r
.	8.Rf\	.	.	.	.	.	.	.
8Ree/J	.	16DL	.	.	.	8e'J	16cL	16dLL
.	.	16CJJ	.	.	.	.	16dJJ	16dJJ
=67	=67	=67	=67	=67	=67	=67	=67	=67
8r	8.Rf\L	8BB-XL	1r	1r	1r	8f'L	16ddKL	8dL
.	.	.	.	.	.	.	8dd'	.
8Ree/L	.	16B-XL	.	.	.	16eL	.	16cL
.	16Rf\Jk	16BB-JJ	.	.	.	16fJJ	16ddJk	16cJJ
8Rcc/	8r	16r	.	.	.	16r	16r	8dL
.	.	8.BB-'	.	.	.	8e'L	8a'L	.
8Ree/J	16r	.	.	.	.	.	.	16cL
.	16Rf\	.	.	.	.	16fJk	16ccJk	16cJJ
8r	8r	8CL	.	.	.	8r	16r	8fL
.	.	.	.	.	.	.	8a'L	.
8Ree/L	16r	16cL	.	.	.	8cc'L	.	8e
.	16Rf\	16CJJ	.	.	.	.	16aJk	.
8Rcc/	16r	16r	.	.	.	8a'	8f'L	8d
.	8.Rf\	16CLL	.	.	.	.	.	.
8Ree/J	.	16BB-	.	.	.	8f'J	16cL	8dJ
.	.	16DJJ	.	.	.	.	16dJJ	.
=68	=68	=68	=68	=68	=68	=68	=68	=68
8Raa/L	8.Rf\L	8DL	1r	1r	1r	8d'L	16r	16dLL
.	.	.	.	.	.	.	8ff'L	16c
8Ree/	.	8dJ	.	.	.	16cL	.	16d
.	16Rf\Jk	.	.	.	.	16dJJ	16ffJk	[16dJJ
8Rcc/	8r	16DKL	.	.	.	16r	16r	16dKL]
.	.	8D	.	.	.	8c'L	8cc'L	8d
8Ree/J	16r	.	.	.	.	.	.	.
.	16Rf\	16dJk	.	.	.	16dJk	16ccJk	16dJk
8r	8r	16r	.	.	.	8r	16r	16dLL
.	.	16AA'KL	.	.	.	.	8g'L	16c
8Ree/L	16r	8DJ	.	.	.	8c'L	.	16d
.	16Rf\	.	.	.	.	.	16gJk	[16dJJ
8Rcc/	16r	8dL	.	.	.	8d'	8f'L	16dLL]
.	8.Rf\	.	.	.	.	.	.	16d
8Ree/J	.	8DJ	.	.	.	8e'J	16cL	16d
.	.	.	.	.	.	.	16dJJ	16dJJ
=69	=69	=69	=69	=69	=69	=69	=69	=69
8r	8.Rf\L	8BB-XL	1r	1r	1r	8f'L	16r	16dLL
.	.	.	.	.	.	.	8dd'L	16dJ
8Ree/L	.	16B-XL	.	.	.	16eL	.	8dJ
.	16Rf\Jk	16BB-JJ	.	.	.	16fJJ	16ddJk	.
8Rcc/	8r	16r	.	.	.	16r	16r	16dLL
.	.	8.BB-'	.	.	.	8e'L	8a'L	16c
8Ree/J	16r	.	.	.	.	.	.	16d
.	16Rf\	.	.	.	.	16fJk	16ccJk	16dJJ
8r	8r	8CL	.	.	.	8r	16r	16dLL
.	.	.	.	.	.	.	8a'L	16c
8Ree/L	16r	16cL	.	.	.	8g'L	.	16d
.	16Rf\	16CJJ	.	.	.	.	16gJk	[16dJJ
8Rcc/	16r	8C'L	.	.	.	8f'	8f'L	8dL]
.	8.Rf\	.	.	.	.	.	.	.
8Ree/J	.	16cL	.	.	.	8e'J	16cL	8dJ
.	.	16dJJ	.	.	.	.	16dJJ	.
=70	=70	=70	=70	=70	=70	=70	=70	=70
8Raa/L	8.Rf\L	8DL	1r	1r	1r	8d'L	16r	16dLL
.	.	.	.	.	.	.	8ff'L	16c
8Ree/	.	16dL	.	.	.	16cL	.	16d
.	16Rf\Jk	16DJJ	.	.	.	16dJJ	16ffJk	[16dJJ
8Rcc/	8r	16AA'KL	.	.	.	16r	16r	16dKL]
.	.	8D	.	.	.	8c'L	8cc'L	8d
8Ree/J	16r	.	.	.	.	.	.	.
.	16Rf\	16dJk	.	.	.	16dJk	16ccJk	16dJk
8r	8r	16r	.	.	.	8r	16r	16dLL
.	.	16AA'KL	.	.	.	.	8g'L	16c
8Ree/L	16r	8DJ	.	.	.	8c'L	.	16d
.	16Rf\	.	.	.	.	.	16gJk	[16dJJ
8Rcc/	4r	4AA'	.	.	.	8d'	8f'L	16dLL]
.	.	.	.	.	.	.	.	16d
8Ree/J	.	.	.	.	.	8e'J	16cL	16d
.	.	.	.	.	.	.	16dJJ	16dJJ
=71	=71	=71	=71	=71	=71	=71	=71	=71
4Ree/	4Rf\	4BB-X'	1r	1r	1r	4f'	4cc'	16dLL
.	.	.	.	.	.	.	.	16dJ
.	.	.	.	.	.	.	.	8dJ
4Ree/	4Rf\	4BB-'	.	.	.	4e'	4cc' 4ff	16dLL
.	.	.	.	.	.	.	.	16d
.	.	.	.	.	.	.	.	16d
.	.	.	.	.	.	.	.	16dJJ
8Ree/L	4Rf\	4C'	.	.	.	4EE' 4AA	4B-' 4e	16cLL
.	.	.	.	.	.	.	.	16d
16Rcc/L	.	.	.	.	.	.	.	16d
16Rcc/JJ	.	.	.	.	.	.	.	[16dJJ
16Rcc/LL	4r	4r	.	.	.	4r	4r	4d]
16Rdd/	.	.	.	.	.	.	.	.
16Rff/	.	.	.	.	.	.	.	.
16Ree/JJ	.	.	.	.	.	.	.	.
=72	=72	=72	=72	=72	=72	=72	=72	=72
8Raa/L	8.Rf\L	8DL	2r	1r	1r	8AL 8d	8aL 8dd	8fL
8Rff/J	.	8d'J	.	.	.	16AL 16d	16aL 16dd	16fL
.	16Rf\Jk	.	.	.	.	16AJJ 16d	16aJJ 16dd	[16fJJ
8Rcc/L 8Rff	16r	16DKL	.	.	.	16r	16r	16fKL]
.	8.Rf\	8d'	.	.	.	8A'L 8d	8a'L 8dd	8f
16Rff/L	.	.	.	.	.	.	.	.
16Rcc/JJ	.	16dJk	.	.	.	16AJk 16d	16aJk 16dd	16fJk
8Rff/L	8.Rf\L	2r	8AAL	.	.	16ALL 16c	16ccLL 16gg	16fLL
.	.	.	.	.	.	16A 16c	16cc 16gg	16f
8Rff/J	.	.	16AAL	.	.	16A 16c	16cc 16gg	16f
.	16Rf\Jk	.	16AAJJ	.	.	16AJJ 16c	16ccJJ 16gg	[16fJJ
8Rcc/L 8Rff	16r	.	16r	.	.	16r	16r	16fKL]
.	8.Rf\	.	8AA'L	.	.	8A'L 8c	8cc'L 8gg	8f
16Rff/L	.	.	.	.	.	.	.	.
16Rcc/JJ	.	.	16AAJk	.	.	16AJk 16c	16ccJk 16gg	16fJk
=73	=73	=73	=73	=73	=73	=73	=73	=73
8Rff/L	8.Rf\L	1r	8BB-L	1r	1r	16B-LL 16d	16b-LL 16ff	16fLL
.	.	.	.	.	.	16B- 16d	16b- 16ff	16f
8Rff/J	.	.	16BB-L	.	.	16B- 16d	16b- 16ff	16f
.	16Rf\Jk	.	16BB-JJ	.	.	16B-JJ 16d	16b-JJ 16ff	16fJJ
8Rcc/L 8Rff	16r	.	16r	.	.	16r	16r	16fKL
.	8.Rf\	.	8BB-'L	.	.	8B-'L 8d	8b-'L 8ff	8f
16Rff/L	.	.	.	.	.	.	.	.
16Rcc/JJ	.	.	16BB-Jk	.	.	16B-Jk 16d	16b-Jk 16ff	16fJk
16Rff/LL	8.Rf\L	.	16BB-LL	.	.	16cLL 16e	16ccLL 16gg	4a
16Rcc/J	.	.	16BB-	.	.	16c 16e	16cc 16gg	.
8Rff/J	.	.	16BB-	.	.	16c 16e	16cc 16gg	.
.	16Rf\Jk	.	16BB-JJ	.	.	16cJJ 16f	16ccJJ 16aa	.
8Rcc/L 8Rff	16r	.	16CLL	.	.	16cLL 16e	16ccLL 16gg	16gKL
.	8.Rf\	.	16C	.	.	16cJ 16e	16ccJ 16gg	8f
16Rff/L	.	.	16C	.	.	8cJ 8e	8ccJ 8gg	.
16Rcc/JJ	.	.	16CJJ	.	.	.	.	16fJk
=74	=74	=74	=74	=74	=74	=74	=74	=74
8Raa/L	8.Rf\L	1r	8DL	1r	1r	8AL 8d	8aL 8dd	16fLL
.	.	.	.	.	.	.	.	16f
8Rff/J	.	.	16DL	.	.	16AL 16d	16aL 16dd	16f
.	16Rf\Jk	.	16DJJ	.	.	16AJJ 16d	16aJJ 16dd	[16fJJ
8Rcc/L 8Rff	16r	.	16r	.	.	16r	16r	16fKL]
.	8.Rf\	.	8D'L	.	.	8A'L 8d	8a'L 8dd	8f
16Rff/L	.	.	.	.	.	.	.	.
16Rcc/JJ	.	.	16DJk	.	.	16AJk 16d	16aJk 16dd	16fJk
8Rff/L	8.Rf\L	.	8AAL	.	.	8AL 8c	8ddL 8aa	8fL
8Rff/J	.	.	16AAL	.	.	16AL 16c	16ddL 16aa	16fL
.	16Rf\Jk	.	16AAJJ	.	.	16AJJ 16c	16ddJJ 16aa	[16fJJ
8Rcc/L 8Rff	16r	.	16r	.	.	16r	16r	16fKL]
.	8.Rf\	.	8AA'L	.	.	8A'L 8c	8dd'L 8aa	8f
16Rff/L	.	.	.	.	.	.	.	.
16Rcc/JJ	.	.	16AAJk	.	.	16AJk 16c	16ddJk 16aa	16fJk
=75	=75	=75	=75	=75	=75	=75	=75	=75
8Rff/L	8.Rf\L	1r	8BB-L	1r	1r	8B-L 8d	8b-L 8ff	16fLL
.	.	.	.	.	.	.	.	16f
8Rff/J	.	.	16BB-L	.	.	16B-L 16d	16b-L 16ff	16f
.	16Rf\Jk	.	16BB-JJ	.	.	16B-JJ 16d	16b-JJ 16ff	16fJJ
8Rcc/L 8Rff	16r	.	16r	.	.	16r	16r	16fKL
.	8.Rf\	.	8BB-'L	.	.	8B-'L 8d	8b-'L 8ff	8f
16Rff/L	.	.	.	.	.	.	.	.
16Rcc/JJ	.	.	16BB-Jk	.	.	16B-Jk 16d	16b-Jk 16ff	16fJk
16Rff/LL	8.Rf\L	.	16BB-LL	.	.	4A	16aLL 16ee	4a
16Rcc/J	.	.	16BB-	.	.	.	16a 16ee	.
8Rff/J	.	.	16BB-	.	.	.	16a 16ee	.
.	16Rf\Jk	.	16BB-JJ	.	.	.	16aJJ 16ee	.
8Rcc/L 8Rff	16r	.	16CLL	.	.	4d	16ddLL 16aa	16gKL
.	8.Rf\	.	16C	.	.	.	16ddJ 16aa	8f
16Rff/L	.	.	16C	.	.	.	8ddJ 8aa	.
16Rcc/JJ	.	.	16CJJ	.	.	.	.	16fJk
=76	=76	=76	=76	=76	=76	=76	=76	=76
8Raa/L	8.Rf\L	1r	16DLL	1r	1r	8AL 8d	8aL 8dd	16fLL
.	.	.	16D	.	.	.	.	16f
8Rff/J	.	.	16D	.	.	16AL 16d	16aL 16dd	16f
.	16Rf\Jk	.	16DJJ	.	.	16AJJ 16d	16aJJ 16dd	[16fJJ
8Rcc/L 8Rff	16r	.	16r	.	.	16r	16r	16fKL]
.	8.Rf\	.	8DL	.	.	8A'L 8d	8a'L 8dd	8f
16Rff/L	.	.	.	.	.	.	.	.
16Rcc/JJ	.	.	16DJk	.	.	16AJk 16d	16aJk 16dd	16fJk
8Rff/L	8.Rf\L	.	16ALL	.	.	16ALL 16c	16ccLL 16gg	8fL
.	.	.	16A	.	.	16A 16c	16cc 16gg	.
8Rff/J	.	.	16A	.	.	16A 16c	16cc 16gg	16fL
.	16Rf\Jk	.	16AJJ	.	.	16AJJ 16c	16ccJJ 16gg	[16fJJ
8Rcc/L 8Rff	16r	.	16r	.	.	16r	16r	16fKL]
.	8.Rf\	.	8AL	.	.	8A'L 8c	8cc'L 8gg	8f
16Rff/L	.	.	.	.	.	.	.	.
16Rcc/JJ	.	.	16AJk	.	.	16AJk 16c	16ccJk 16gg	16fJk
=77	=77	=77	=77	=77	=77	=77	=77	=77
8Rff/L	8.Rf\L	1r	8B-L	1r	1r	16B-LL 16d	16b-LL 16ff	16fLL
.	.	.	.	.	.	16B- 16d	16b- 16ff	16f
8Rff/J	.	.	16B-L	.	.	16B- 16d	16b- 16ff	16f
.	16Rf\Jk	.	16B-JJ	.	.	16B-JJ 16d	16b-JJ 16ff	16fJJ
8Rcc/L 8Rff	16r	.	16r	.	.	16r	16r	16fKL
.	8.Rf\	.	8B-L	.	.	8B-'L 8d	8b-'L 8ff	8f
16Rff/L	.	.	.	.	.	.	.	.
16Rcc/JJ	.	.	16B-Jk	.	.	16B-Jk 16d	16b-Jk 16ff	16fJk
16Rff/LL	8.Rf\L	.	16B-LL	.	.	16cLL 16e	16ccLL 16gg	4a
16Rcc/J	.	.	16B-	.	.	16c 16e	16cc 16gg	.
8Rff/J	.	.	16B-	.	.	16c 16e	16cc 16gg	.
.	16Rf\Jk	.	16B-JJ	.	.	16cJJ 16f	16ccJJ 16aa	.
8Rcc/L 8Rff	16r	.	16cLL	.	.	16cLL 16e	16ccLL 16gg	8.gL
.	8.Rf\	.	16c	.	.	16cJ 16e	16ccJ 16gg	.
16Rff/L	.	.	16c	.	.	8cJ 8e	8ccJ 8gg	.
16Rcc/JJ	.	.	16cJJ	.	.	.	.	16fJk
=78	=78	=78	=78	=78	=78	=78	=78	=78
8Raa/L	8.Rf\L	1r	8DL	1r	1r	8AL 8d	8aL 8dd	16fLL
.	.	.	.	.	.	.	.	16f
8Rff/J	.	.	16DL	.	.	16AL 16d	16aL 16dd	16f
.	16Rf\Jk	.	16DJJ	.	.	16AJJ 16d	16aJJ 16dd	[16fJJ
8Rcc/L 8Rff	16r	.	16r	.	.	16r	16r	16fKL]
.	8.Rf\	.	8DL	.	.	8A'L 8d	8a'L 8dd	8f
16Rff/L	.	.	.	.	.	.	.	.
16Rcc/JJ	.	.	16DJk	.	.	16AJk 16d	16aJk 16dd	16fJk
8Rff/L	8.Rf\L	.	8AL	.	.	8AL 8c	8ddL 8aa	8fL
8Rff/J	.	.	16AL	.	.	16AL 16c	16ddL 16aa	16fL
.	16Rf\Jk	.	16AJJ	.	.	16AJJ 16c	16ddJJ 16aa	[16fJJ
8Rcc/L 8Rff	16r	.	16r	.	.	16r	16r	16fKL]
.	8.Rf\	.	8AL	.	.	8A'L 8c	8dd'L 8aa	8f
16Rff/L	.	.	.	.	.	.	.	.
16Rcc/JJ	.	.	16AJk	.	.	16AJk 16c	16ddJk 16aa	16fJk
=79	=79	=79	=79	=79	=79	=79	=79	=79
8Rff/L	8.Rf\L	1r	16BB-LL	1r	1r	8B-L 8d	8b-L 8ff	16fKL
.	.	.	16BB-	.	.	.	.	8f
8Rff/J	.	.	16BB-	.	.	16B-L 16d	16b-L 16ff	.
.	16Rf\Jk	.	16BB-JJ	.	.	16B-JJ 16d	16b-JJ 16ff	[16fJk
8Rcc/L 8Rff	16r	.	16r	.	.	16r	16r	16fLL]
.	8.Rf\	.	8BB-L	.	.	8B-'L 8d	8b-'L 8ff	16fJ
16Rff/L	.	.	.	.	.	.	.	8gJ
16Rcc/JJ	.	.	16BB-Jk	.	.	16B-Jk 16d	16b-Jk 16ff	.
16Rff/LL	8.Rf\L	.	16BB-LL	.	.	4A	16aLL 16ee	4a
16Rcc/J	.	.	16BB-	.	.	.	16a 16ee	.
8Rff/J	.	.	16AA	.	.	.	16a 16ee	.
.	16Rf\Jk	.	16BB-JJ	.	.	.	16aJJ 16ee	.
8Rcc/L 8Rff	16r	.	16CLL	.	.	16dLL	16ddLL 16aa	8gL
.	8.Rf\	.	16C	.	.	16d	16dd 16aa	.
16Rff/L	.	.	16C	.	.	16d	16dd 16aa	8fJ
16Rcc/JJ	.	.	16CJJ	.	.	16dJJ	16ddJJ 16aa	.
=80	=80	=80	=80	=80	=80	=80	=80	=80
8Rff/L	4Rf\	1r	8CL	1r	1r	16dLL	16ddLL 16aa	2r
.	.	.	.	.	.	16d	16dd 16aa	.
16Rff/L	.	.	16CL	.	.	16d	16dd 16aa	.
16Rcc/JJ	.	.	16CJJ	.	.	16dJJ	16ddJJ 16aa	.
16r	4r	.	16r	.	.	16r	16r	.
8Rcc/L	.	.	8C'L	.	.	8d'L	8dd'L 8aa	.
16Rcc/Jk	.	.	16CJk	.	.	16dJk	16ddJk 16aa	.
16r	4r	.	16r	.	.	16r	16r	4r
8Rcc/L	.	.	8C'L	.	.	8d'L	8dd'L 8aa	.
16Rcc/Jk	.	.	16CJk	.	.	16dJk	16ddJk 16aa	.
16Ree/LL	4Rf\	.	4c	.	.	16dLL	16ddLL 16aa	8r
16Rcc/	.	.	.	.	.	16d	16dd 16aa	.
16Rcc/	.	.	.	.	.	16d	16dd 16aa	8c
16Rcc/JJ	.	.	.	.	.	16dJJ	16ddJJ 16aa	.
=81	=81	=81	=81	=81	=81	=81	=81	=81
8Raa/L	8.Rf\L	1r	8AAL	1r	24fLL	8cL 8f	8cL 8f	4.c
.	.	.	.	.	24g	.	.	.
.	.	.	.	.	24fJ	.	.	.
8Rff/J	.	.	8AA	.	8cJ	8c 8f	8c 8f	.
.	16Rf\Jk	.	.	.	.	.	.	.
8Rff/L	16r	.	8AA	.	8.fL	8c 8f	8c 8f	.
.	8.Rf\	.	.	.	.	.	.	.
16Rff/L	.	.	8AAJ	.	.	8cJ 8f	8cJ 8f	8d
16Rcc/JJ	.	.	.	.	[16aJk	.	.	.
8Rff/L	8.Rf\L	.	8AAL	.	8aL]	8cL 8f	8cL 8f	4.f
8Rff/	.	.	8AA	.	16b-L	8cJ 8f	8cJ 8f	.
.	16Rf\Jk	.	.	.	16aJJ	.	.	.
8Rcc/ 8Rff	16r	.	8AA	.	8fL	8cL 8f	8cL 8f	.
.	8.Rf\	.	.	.	.	.	.	.
8Rff/J	.	.	8AAJ	.	8cJ	16cL 16f	16cL 16f	8d
.	.	.	.	.	.	16cJJ 16f	16cJJ 16f	.
=82	=82	=82	=82	=82	=82	=82	=82	=82
8Raa/L	8.Rf\L	1r	8BB-L	1r	24fLL	8cL 8f	8cL 8f	4g
.	.	.	.	.	24g	.	.	.
.	.	.	.	.	24fJ	.	.	.
8Rff/J	.	.	8BB-	.	8cJ	8c 8f	8c 8f	.
.	16Rf\Jk	.	.	.	.	.	.	.
8Rff/L	16r	.	8BB-	.	8.fL	8c 8f	8c 8f	8r
.	8.Rf\	.	.	.	.	.	.	.
16Rff/L	.	.	8BB-J	.	.	8cJ 8f	8cJ 8f	8d
16Rcc/JJ	.	.	.	.	[16aJk	.	.	.
8Rff/L	8.Rf\L	.	8BB-L	.	8aL]	8cL 8f	8cL 8f	4f
8Rff/	.	.	8BB-	.	16ccL	8cJ 8f	8cJ 8f	.
.	16Rf\Jk	.	.	.	16aJJ	.	.	.
8Rcc/ 8Rff	16r	.	8BB-	.	8fL	8cL 8f	8cL 8f	8r
.	8.Rf\	.	.	.	.	.	.	.
8Rff/J	.	.	8BB-J	.	8cJ	16cL 16f	16cL 16f	8c
.	.	.	.	.	.	16cJJ 16f	16cJJ 16f	.
=83	=83	=83	=83	=83	=83	=83	=83	=83
8Raa/L	8.Rf\L	1r	8CL	1r	24fLL	8cL 8f	8cL 8f	4.c
.	.	.	.	.	24g	.	.	.
.	.	.	.	.	24fJ	.	.	.
8Rff/J	.	.	8C	.	8cJ	8c 8f	8c 8f	.
.	16Rf\Jk	.	.	.	.	.	.	.
8Rff/L	16r	.	8C	.	8.fL	8c 8f	8c 8f	.
.	8.Rf\	.	.	.	.	.	.	.
16Rff/L	.	.	8CJ	.	.	8cJ 8f	8cJ 8f	8d
16Rcc/JJ	.	.	.	.	[16aJk	.	.	.
8Rff/L	8.Rf\L	.	8CL	.	8aL]	8cL 8f	8cL 8f	4.f
8Rff/J	.	.	8C	.	16b-L	8cJ 8f	8cJ 8f	.
.	16Rf\Jk	.	.	.	16aJJ	.	.	.
8Rcc/L 8Rff	16r	.	8C	.	8fL	8cL 8f	8cL 8f	.
.	8.Rf\	.	.	.	.	.	.	.
16Rff/L	.	.	8CJ	.	8cJ	16cL 16f	16cL 16f	8d
16Rcc/JJ 16Rff	.	.	.	.	.	16cJJ 16f	16cJJ 16f	.
=84	=84	=84	=84	=84	=84	=84	=84	=84
8Rff/L	8.Rf\L	1r	8DL	1r	24fLL	8cL 8f	8cL 8f	4g
.	.	.	.	.	24g	.	.	.
.	.	.	.	.	24fJ	.	.	.
8Rff/	.	.	8DJ	.	8cJ	8c 8f	8c 8f	.
.	16Rf\Jk	.	.	.	.	.	.	.
8Rcc/ 8Rff	4r	.	8DL	.	8.fL	8c 8f	8c 8f	8r
8Rcc/J 8Rff	.	.	16DL	.	.	8cJ 8f	8cJ 8f	8d
.	.	.	16DJJ	.	[16aJk	.	.	.
16Rff/LL	8r	.	16ALL	.	8aL]	8cL 8f	8cL 8f	4f
16Rcc/J	.	.	16A	.	.	.	.	.
8Rff/J	16r	.	16A	.	16ccL	8cJ 8f	8cJ 8f	.
.	16Rf\	.	16AJJ	.	16aJJ	.	.	.
8Rcc/L 8Rff	16r	.	16dLL	.	8fL	8cL 8f	8cL 8f	8r
.	8.Rf\	.	16AJ	.	.	.	.	.
16Rff/L	.	.	8AJ	.	8cJ	16cL 16f	16cL 16f	8c
16Rcc/JJ	.	.	.	.	.	16cJJ 16f	16cJJ 16f	.
=85	=85	=85	=85	=85	=85	=85	=85	=85
8Raa/L	8.Rf\L	1r	8AL	1r	24fLL	8cL 8f	8cL 8f	4.c
.	.	.	.	.	24g	.	.	.
.	.	.	.	.	24fJ	.	.	.
8Rff/J	.	.	8A	.	8cJ	8c 8f	8c 8f	.
.	16Rf\Jk	.	.	.	.	.	.	.
8Rff/L	16r	.	8A	.	8.fL	8c 8f	8c 8f	.
.	8.Rf\	.	.	.	.	.	.	.
16Rff/L	.	.	8AJ	.	.	8cJ 8f	8cJ 8f	8d
16Rcc/JJ	.	.	.	.	[16aJk	.	.	.
8Rff/L	8.Rf\L	.	8AL	.	8aL]	8cL 8f	8cL 8f	4.f
8Rff/	.	.	8A	.	16b-L	8cJ 8f	8cJ 8f	.
.	16Rf\Jk	.	.	.	16aJJ	.	.	.
8Rcc/ 8Rff	16r	.	8A	.	8fL	8cL 8f	8cL 8f	.
.	8.Rf\	.	.	.	.	.	.	.
8Rff/J	.	.	8AJ	.	8cJ	16cL 16f	16cL 16f	8d
.	.	.	.	.	.	16cJJ 16f	16cJJ 16f	.
=86	=86	=86	=86	=86	=86	=86	=86	=86
8Raa/L	8.Rf\L	1r	8B-L	1r	24fLL	8cL 8f	8cL 8f	4.g
.	.	.	.	.	24g	.	.	.
.	.	.	.	.	24fJ	.	.	.
8Rff/J	.	.	8B-	.	8cJ	8c 8f	8c 8f	.
.	16Rf\Jk	.	.	.	.	.	.	.
8Rff/L	16r	.	8B-	.	8.fL	8c 8f	8c 8f	.
.	8.Rf\	.	.	.	.	.	.	.
16Rff/L	.	.	8B-J	.	.	8cJ 8f	8cJ 8f	8d
16Rcc/JJ	.	.	.	.	[16aJk	.	.	.
8Rff/L	8.Rf\L	.	8B-L	.	8aL]	8cL 8f	8cL 8f	4f
8Rff/	.	.	8B-	.	16ccL	8cJ 8f	8cJ 8f	.
.	16Rf\Jk	.	.	.	16aJJ	.	.	.
8Rcc/ 8Rff	16r	.	8B-	.	8fL	8cL 8f	8cL 8f	8r
.	8.Rf\	.	.	.	.	.	.	.
8Rff/J	.	.	8B-J	.	8cJ	16cL 16f	16cL 16f	8c
.	.	.	.	.	.	16cJJ 16f	16cJJ 16f	.
=87	=87	=87	=87	=87	=87	=87	=87	=87
8Raa/L	8.Rf\L	1r	8AAL	1r	8aL	8cL 8f	8cL 8f	4c
8Rff/J	.	.	8AA	.	8f	8c 8f	8c 8f	.
.	16Rf\Jk	.	.	.	.	.	.	.
8Rff/L	16r	.	8AA	.	8c	8c 8f	8c 8f	8r
.	8.Rf\	.	.	.	.	.	.	.
16Rff/L	.	.	8AAJ	.	8aJ	8cJ 8f	8cJ 8f	8f
16Rcc/JJ	.	.	.	.	.	.	.	.
8Rff/L	8.Rf\L	.	8C#XL	.	8fL	8cL 8f	8cL 8f	4.b-
8Rff/J	.	.	8C#	.	8c	8cJ 8f	8cJ 8f	.
.	16Rf\Jk	.	.	.	.	.	.	.
8Rcc/L 8Rff	16r	.	8C#	.	8f	8cL 8f	8cL 8f	.
.	8.Rf\	.	.	.	.	.	.	.
16Rff/L	.	.	8C#J	.	8aJ	16cL 16f	16cL 16f	8a
16Rcc/JJ 16Rff	.	.	.	.	.	16cJJ 16f	16cJJ 16f	.
=88	=88	=88	=88	=88	=88	=88	=88	=88
8Raa/L	8.Rf\L	1r	8DL	1r	24fLL	8cL 8f	8cL 8f	4g
.	.	.	.	.	24g	.	.	.
.	.	.	.	.	24fJ	.	.	.
8Rff/	.	.	8D	.	8cJ	8c 8f	8c 8f	.
.	16Rf\Jk	.	.	.	.	.	.	.
8Rff/	16r	.	8D	.	8.fL	8c 8f	8c 8f	8r
.	8.Rf\	.	.	.	.	.	.	.
8Rff/J	.	.	8DJ	.	.	8cJ 8f	8cJ 8f	8f
.	.	.	.	.	[16aJk	.	.	.
8Rff/L	4Rf\	.	16cLL	.	8aL]	8cL 8f	8cL 8f	4.f
.	.	.	16c	.	.	.	.	.
16Rcc/L	.	.	16c	.	16b-L	8cJ 8f	8cJ 8f	.
16Rcc/JJ	.	.	16cJJ	.	16aJJ	.	.	.
16Rcc/LL	4r	.	8gL	.	4cc	4c 4f	4c 4f	.
16Rcc/	.	.	.	.	.	.	.	.
16Rcc/	.	.	8ccJ	.	.	.	.	8e
16Rcc/JJ	.	.	.	.	.	.	.	.
*v	*v	*	*	*	*	*	*	*
=89	=89	=89	=89	=89	=89	=89	=89
1r	1r	1r	1r	1r	8dL	16DLL	4d
.	.	.	.	.	.	16G	.
.	.	.	.	.	8a'J	16A	.
.	.	.	.	.	.	16dJJ	.
.	.	.	.	.	16dKL	16r	4r
.	.	.	.	.	8a'	8c'L	.
.	.	.	.	.	[16dJk	16AJk	.
.	.	.	.	.	8dL]	16r	2r
.	.	.	.	.	.	16DLL	.
.	.	.	.	.	8a'	16A	.
.	.	.	.	.	.	16B-JJ	.
.	.	.	.	.	8d	8AL	.
.	.	.	.	.	8a'J	8FJ	.
=90	=90	=90	=90	=90	=90	=90	=90
1r	1r	1r	1r	1r	8cL	16AAKL	1r
.	.	.	.	.	.	8C'	.
.	.	.	.	.	8g'J	.	.
.	.	.	.	.	.	16GJk	.
.	.	.	.	.	16cKL	16r	.
.	.	.	.	.	8g'	8E'L	.
.	.	.	.	.	[16B-Jk	16FJk	.
.	.	.	.	.	8B-L]	16r	.
.	.	.	.	.	.	16DLL	.
.	.	.	.	.	8f'	16G	.
.	.	.	.	.	.	16cJJ	.
.	.	.	.	.	8G	8Bn'L	.
.	.	.	.	.	8g'J	8A'J	.
=91	=91	=91	=91	=91	=91	=91	=91
1r	1r	1r	1r	1r	8dL	16DLL	1r
.	.	.	.	.	.	16G	.
.	.	.	.	.	8a'J	16A	.
.	.	.	.	.	.	16dJJ	.
.	.	.	.	.	16dKL	16r	.
.	.	.	.	.	8a'	8c'L	.
.	.	.	.	.	[16dJk	16AJk	.
.	.	.	.	.	8dL]	16r	.
.	.	.	.	.	.	16DLL	.
.	.	.	.	.	8a'	16A	.
.	.	.	.	.	.	16B-JJ	.
.	.	.	.	.	8d	8AL	.
.	.	.	.	.	8a'J	8FJ	.
=92	=92	=92	=92	=92	=92	=92	=92
1r	1r	1r	2r	1r	8B-L	16DKL	1r
.	.	.	.	.	.	8F'	.
.	.	.	.	.	8fJ	.	.
.	.	.	.	.	.	16AJk	.
.	.	.	.	.	16B-KL	16r	.
.	.	.	.	.	8f'	8B-'L	.
.	.	.	.	.	[16AJk	16cJk	.
.	.	.	4r	.	8AL]	16r	.
.	.	.	.	.	.	16GLL	.
.	.	.	.	.	8e'	16c	.
.	.	.	.	.	.	16eJJ	.
.	.	.	4d	.	8c	8c'L	.
.	.	.	.	.	8g'J	8d'J	.
=93	=93	=93	=93	=93	=93	=93	=93
*^	*	*	*	*	*	*	*
1r	4Rf\	1r	1r	8.aaL	8r	8dL	16DLL	1r
.	.	.	.	.	.	.	16G	.
.	.	.	.	.	8a'	8a'J	16A	.
.	.	.	.	[16aaJk	.	.	16dJJ	.
.	4Rf\	.	.	8aaL]	16r	16dKL	16r	.
.	.	.	.	.	8.f'	8a'	8c'L	.
.	.	.	.	8aaJ	.	.	.	.
.	.	.	.	.	.	[16dJk	16AJk	.
.	4Rf\	.	.	[2dd	8.g'L	8dL]	16r	.
.	.	.	.	.	.	.	16DLL	.
.	.	.	.	.	.	8a'	16A	.
.	.	.	.	.	16eJk	.	16B-JJ	.
.	4Rf\	.	.	.	8r	8d	8AL	.
.	.	.	.	.	8d'	8a'J	8FJ	.
=94	=94	=94	=94	=94	=94	=94	=94	=94
1r	4Rf\	1r	1r	1dd]	16r	8cL	16AAKL	1r
.	.	.	.	.	8.c'	.	8C'	.
.	.	.	.	.	.	8g'J	.	.
.	.	.	.	.	.	.	16GJk	.
.	4Rf\	.	.	.	8.d'L	16cKL	16r	.
.	.	.	.	.	.	8g'	8E'L	.
.	.	.	.	.	16eJk	[16B-Jk	16FJk	.
.	4Rf\	.	.	.	8r	8B-L]	16r	.
.	.	.	.	.	.	.	16DLL	.
.	.	.	.	.	8f'	8f'	16G	.
.	.	.	.	.	.	.	16cJJ	.
.	4Rf\	.	.	.	16r	8G	8Bn'L	.
.	.	.	.	.	8g'L	.	.	.
.	.	.	.	.	.	8g'J	8A'J	.
.	.	.	.	.	16aJk	.	.	.
=95	=95	=95	=95	=95	=95	=95	=95	=95
1r	4Rf\	1r	1r	8.aaL	8r	8dL	16DLL	1r
.	.	.	.	.	.	.	16G	.
.	.	.	.	.	8a'	8a'J	16A	.
.	.	.	.	[16aaJk	.	.	16dJJ	.
.	4Rf\	.	.	8aaL]	16r	16dKL	16r	.
.	.	.	.	.	8.f'	8a'	8c'L	.
.	.	.	.	8aaJ	.	.	.	.
.	.	.	.	.	.	[16dJk	16AJk	.
.	4Rf\	.	.	2dd	8.g'L	8dL]	16r	.
.	.	.	.	.	.	.	16DLL	.
.	.	.	.	.	.	8a'	16A	.
.	.	.	.	.	16eJk	.	16B-JJ	.
.	4Rf\	.	.	.	8r	8d	8AL	.
.	.	.	.	.	8d'	8a'J	8FJ	.
=96	=96	=96	=96	=96	=96	=96	=96	=96
2r	2r	1r	2r	1r	1r	2r	16DKL	1r
.	.	.	.	.	.	.	8.F'J	.
.	.	.	.	.	.	.	16GKL	.
.	.	.	.	.	.	.	8.A'J	.
4r	4r	.	4r	.	.	4r	16GKL	.
.	.	.	.	.	.	.	8.B-'J	.
4Rcc/ 4Ree	4Rf\	.	4EE'	.	.	4c 4e	4c 4e	.
=97	=97	=97	=97	=97	=97	=97	=97	=97
8r	8.Rf\L	8DL	1r	8.aaL	8r	8dL	16DLL	1r
.	.	.	.	.	.	.	16G	.
8Rff/L	.	16AA'L	.	.	8a'	8a'J	16A	.
.	16Rf\Jk	16AA'JJ	.	[16aaJk	.	.	16dJJ	.
8Rcc/	8r	16dKL	.	8aaL]	16r	16dKL	16r	.
.	.	8D'	.	.	8.f'	8a'	8c'L	.
8Rff/J	16r	.	.	8aaJ	.	.	.	.
.	16Rf\	16DJk	.	.	.	[16dJk	16AJk	.
8r	8r	16AA'LL	.	[2dd	8.g'L	8dL]	16r	.
.	.	16dJ	.	.	.	.	16DLL	.
8Rff/L	16r	8DJ	.	.	.	8a'	16A	.
.	16Rf\	.	.	.	16eJk	.	16B-JJ	.
8Rcc/	16r	8d'L	.	.	8r	8d	8AL	.
.	8.Rf\	.	.	.	.	.	.	.
8Rff/J	.	8DJ	.	.	8d'	8a'J	8FJ	.
=98	=98	=98	=98	=98	=98	=98	=98	=98
8r	8.Rf\L	8CL	1r	1dd]	16r	8cL	16AAKL	1r
.	.	.	.	.	8.c'	.	8C'	.
8Rff/L	.	8AA'J	.	.	.	8g'J	.	.
.	16Rf\Jk	.	.	.	.	.	16GJk	.
8Rcc/	8r	16CKL	.	.	8.d'L	16cKL	16r	.
.	.	8G'	.	.	.	8g'	8E'L	.
8Rff/J	16r	.	.	.	.	.	.	.
.	16Rf\	16BB-XJk	.	.	16eJk	[16B-Jk	16FJk	.
8r	8r	16BB-LL	.	.	8r	8B-L]	16r	.
.	.	16G'J	.	.	.	.	16DLL	.
8Rff/L	16r	8BB-J	.	.	8f'	8f'	16G	.
.	16Rf\	.	.	.	.	.	16cJJ	.
8Rcc/	16r	8GG'L	.	.	16r	8G	8Bn'L	.
.	8.Rf\	.	.	.	8g'L	.	.	.
8Rff/J	.	8G'J	.	.	.	8g'J	8A'J	.
.	.	.	.	.	16aJk	.	.	.
=99	=99	=99	=99	=99	=99	=99	=99	=99
8r	8.Rf\L	8DL	1r	8.aaL	8r	8dL	16DLL	1r
.	.	.	.	.	.	.	16G	.
8Rff/L	.	16AA'L	.	.	8a'	8a'J	16A	.
.	16Rf\Jk	16AA'JJ	.	[16aaJk	.	.	16dJJ	.
8Rcc/	8r	16dKL	.	8aaL]	16r	16dKL	16r	.
.	.	8D'	.	.	8.f'	8a'	8c'L	.
8Rff/J	16r	.	.	8aaJ	.	.	.	.
.	16Rf\	16DJk	.	.	.	[16dJk	16AJk	.
8r	8r	16AALL	.	[2dd	8.g'L	8dL]	16r	.
.	.	16dJ	.	.	.	.	16DLL	.
8Rff/L	16r	8DJ	.	.	.	8a'	16A	.
.	16Rf\	.	.	.	16eJk	.	16B-JJ	.
8Rcc/	16r	8d'L	.	.	8r	8d	8AL	.
.	8.Rf\	.	.	.	.	.	.	.
8Rff/J	.	8DJ	.	.	8d'	8a'J	8FJ	.
=100	=100	=100	=100	=100	=100	=100	=100	=100
8r	8.Rf\L	8BB-XL	1r	1dd]	16r	8B-L	16DKL	1r
.	.	.	.	.	8.c'	.	8F'	.
8Rff/L	.	16AA'L	.	.	.	8f'J	.	.
.	16Rf\Jk	16AA'JJ	.	.	.	.	16AJk	.
8Rcc/	8r	16B-XKL	.	.	8.d'L	16B-KL	16r	.
.	.	8BB-'	.	.	.	8f'	8B-'L	.
8Rff/J	16r	.	.	.	.	.	.	.
.	16Rf\	16CJk	.	.	16eJk	[16AJk	16cJk	.
8r	8r	16r	.	.	8r	8AL]	16r	.
.	.	16GKL	.	.	.	.	16GLL	.
8Rff/L	16r	8CJ	.	.	8f'	8G'	16c	.
.	16Rf\	.	.	.	.	.	16eJJ	.
8Rcc/	16r	8C'L	.	.	16r	8c	8c'L	.
.	8.Rf\	.	.	.	8g'L	.	.	.
8Rff/J	.	16CL	.	.	.	8G'J	8d'J	.
.	.	16DJJ	.	.	16aJk	.	.	.
=101	=101	=101	=101	=101	=101	=101	=101	=101
8Raa/L	8.Rf\L	8DL	1r	8.aaL	8r	8dL	16DLL	1r
.	.	.	.	.	.	.	16G	.
8Rff/	.	16AA'L	.	.	8a'	8a'J	16A	.
.	16Rf\Jk	16AA'JJ	.	[16aaJk	.	.	16dJJ	.
8Rcc/	8r	16dKL	.	8aaL]	16r	16dKL	16r	.
.	.	8D'	.	.	8.f	8a'	8c'L	.
8Raa/J	8Rf\	.	.	8aaJ	.	.	.	.
.	.	16DJk	.	.	.	[16e-XJk	16DJk	.
16r	8r	16AA'LL	.	[2dd	8r	8e-L]	16ALL	.
16Rcc/KL	.	16dJ	.	.	.	.	16B-J	.
8Rff/J	16r	8DJ	.	.	8b-'	8b-'J	8e-X'J	.
.	16Rf\	.	.	.	.	.	.	.
8Rcc/L	16r	8d'L	.	.	16r	16e-KL	8BnL	.
.	8.Rf\	.	.	.	8.f#X	8b-'	.	.
8Rff/J	.	8DJ	.	.	.	.	8DJ	.
.	.	.	.	.	.	[16enJk	.	.
=102	=102	=102	=102	=102	=102	=102	=102	=102
8Raa/L	8.Rf\L	8DL	1r	1dd]	8r	8eL]	16BnKL	1r
.	.	.	.	.	.	.	8e'	.
8Rff/	.	16AA'L	.	.	8b-'	8b-'J	.	.
.	16Rf\Jk	16AA'JJ	.	.	.	.	16dJk	.
8Rcc/	8r	16dKL	.	.	16r	16eKL	16r	.
.	.	8D'	.	.	8.g	8b-'	16DLL	.
8Raa/J	8Rf\	.	.	.	.	.	16B-X	.
.	.	16DJk	.	.	.	[16fJk	16cJJ	.
16r	8r	16AA'LL	.	.	8r	8fL]	8f'L	.
16Rcc/KL	.	16dJ	.	.	.	.	.	.
8Rff/J	16r	8DJ	.	.	8cc'	8ccJ	8c'J	.
.	16Rf\	.	.	.	.	.	.	.
8Rcc/L	16r	16GLL	.	.	16r	16fKL	16DLL	.
.	8.Rf\	16A	.	.	8.a-X	8cc'	16c	.
8Rff/J	.	16c	.	.	.	.	16c#X	.
.	.	16dJJ	.	.	.	[16f#XJk	16f#XJJ	.
=103	=103	=103	=103	=103	=103	=103	=103	=103
8Raa/L	8.Rf\L	8DL	1r	8.aaL	8r	8f#L]	16r	1r
.	.	.	.	.	.	.	8e'L	.
8Rff/	.	16AA'L	.	.	8cc#X'	8cc#X'J	.	.
.	16Rf\Jk	16AA'JJ	.	[16aaJk	.	.	16c#XJk	.
8Rcc/	8r	16dKL	.	8aaL]	16r	16gKL	16DLL	.
.	.	8D'	.	.	8.ee-X'	8cc#'	16cn	.
8Raa/J	8Rf\	.	.	8aaJ	.	.	16d	.
.	.	16DJk	.	.	.	[16gJk	16gJJ	.
16r	8r	16AA'LL	.	[2dd	16r	8gL]	8f'L	.
16Rcc/KL	.	16dJ	.	.	8.dd'	.	.	.
8Rff/J	16r	8DJ	.	.	.	8dd'J	16DL	.
.	16Rf\	.	.	.	.	.	16c#XJJ	.
8Rcc/L	16r	8d'L	.	.	4ff#X	16gKL	16e-XKL	.
.	8.Rf\	.	.	.	.	8cc#'	8a-X'	.
8Rff/J	.	8DJ	.	.	.	.	.	.
.	.	.	.	.	.	[16aJk	16f#XJk	.
=104	=104	=104	=104	=104	=104	=104	=104	=104
8Raa/L	8.Rf\L	8DL	1r	1dd]	8r	8aL]	16DLL	1r
.	.	.	.	.	.	.	16d	.
8Rff/	.	16AA'L	.	.	8ee-X'	8ee-X'J	16e	.
.	16Rf\Jk	16AA'JJ	.	.	.	.	16aJJ	.
8Rcc/	8r	16dKL	.	.	16r	16aKL	8.gL	.
.	.	8D'	.	.	8.ee-'	8ee-'	.	.
8Raa/J	8Rf\	.	.	.	.	.	.	.
.	.	16DJk	.	.	.	[16aJk	16aJk	.
16r	8r	16AA'LL	.	.	8r	8aL]	16DLL	.
16Rcc/KL	.	16dJ	.	.	.	.	16e-X	.
8Rff/J	16r	8DJ	.	.	4een	8een'J	16f	.
.	16Rf\	.	.	.	.	.	16b-JJ	.
8Rcc/L	16r	8d'L	.	.	.	16aKL	8.a-XL	.
.	8Rf\L	.	.	.	.	8.ee'J	.	.
8Rff/J	.	8DJ	.	.	8ee	.	.	.
.	16Rf\Jk	.	.	.	.	.	16b-Jk	.
=105	=105	=105	=105	=105	=105	=105	=105	=105
*	*	*	*	*	*	*^	*	*
8Rcc/L 8Raa	8r	1r	8AAL	1r	1r	24eeLL	2r	8.eL 8.a	1r
.	.	.	.	.	.	24B-'	.	.	.
.	.	.	.	.	.	24B-'	.	.	.
8Rff/	8Rf\	.	16AAL	.	.	32ccK	.	.	.
.	.	.	.	.	.	16dd	.	.	.
.	.	.	16AAJJ	.	.	.	.	[16eJk [16a	.
.	.	.	.	.	.	32eeJJk	.	.	.
8Rcc/ 8Rff	4r	.	16AALL	.	.	28ccLLL	.	8eL] 8a]	.
.	.	.	.	.	.	28.dd	.	.	.
.	.	.	16AA	.	.	.	.	.	.
.	.	.	.	.	.	28ee	.	.	.
8Rcc/J 8Rff	.	.	16AA	.	.	28cc	.	[8eJ [8a	.
.	.	.	.	.	.	28.dd	.	.	.
.	.	.	16AAJJ	.	.	.	.	.	.
.	.	.	.	.	.	28ddJJJ	.	.	.
16Rff/LL	8r	.	16AALL	.	.	36eeKLL	16r	16eKL] 16a]	.
.	.	.	.	.	.	18eeJJ	.	.	.
16Rcc/J	.	.	16AA	.	.	.	32r	8.eJ 8.a	.
.	.	.	.	.	.	36r	.	.	.
.	.	.	.	.	.	.	32ccKKL	.	.
.	.	.	.	.	.	18r	.	.	.
8Rff/J	16r	.	16AA	.	.	.	8cc'J	.	.
.	.	.	.	.	.	36ddKLL	.	.	.
.	16Rf\	.	16AAJJ	.	.	.	.	.	.
.	.	.	.	.	.	18ddJJ	.	.	.
8Rcc/L 8Rff	8r	.	16AALL	.	.	36r	8ee'L	8eL 8a	.
.	.	.	.	.	.	18eeLL	.	.	.
.	.	.	16AA	.	.	.	.	.	.
.	.	.	.	.	.	18cc'JJ	.	.	.
8Rff/J	8Rf\	.	16AA	.	.	.	8cc'J	8eJ 8a	.
.	.	.	.	.	.	36r	.	.	.
.	.	.	.	.	.	36ddKLL	.	.	.
.	.	.	16AAJJ	.	.	.	.	.	.
.	.	.	.	.	.	18eeJJ	.	.	.
*	*	*	*	*	*	*v	*v	*	*
=106	=106	=106	=106	=106	=106	=106	=106	=106
8Rff/L	16r	1r	32GGLLL	1r	1r	24eeLL	8.eL 8.a	1r
.	.	.	32AA-XJ	.	.	.	.	.
.	.	.	.	.	.	24ee	.	.
.	8.Rf\	.	16AAn	.	.	.	.	.
.	.	.	.	.	.	24cc	.	.
8Rcc/ 8Rff	.	.	16AA	.	.	32ccK	.	.
.	.	.	.	.	.	16dd	.	.
.	.	.	16AAJJ	.	.	.	[16eJk [16a	.
.	.	.	.	.	.	32ddJJk	.	.
8Rff/	8.Rf\L	.	16AALL	.	.	32eeKLL	8eL] 8a]	.
.	.	.	.	.	.	16ee	.	.
.	.	.	16AA	.	.	.	.	.
.	.	.	.	.	.	32ccL	.	.
8Rff/J	.	.	16AA	.	.	32ccJ	[8eJ [8a	.
.	.	.	.	.	.	16dd	.	.
.	16Rf\Jk	.	16AAJJ	.	.	.	.	.
.	.	.	.	.	.	32ddJJk	.	.
8Rcc/L 8Rff	8r	.	16AALL	.	.	32eeKLL	16eKL] 16a]	.
.	.	.	.	.	.	16ee	.	.
.	.	.	16AA	.	.	.	8.eJ 8.a	.
.	.	.	.	.	.	32ccL	.	.
8Rff/	16r	.	16AA	.	.	32ccJ	.	.
.	.	.	.	.	.	16dd	.	.
.	16Rf\	.	16AAJJ	.	.	.	.	.
.	.	.	.	.	.	32ddJJk	.	.
8Rcc/ 8Rff	16r	.	16AALL	.	.	24aaLL	8eL 8a	.
.	.	.	.	.	.	48B-'JJk	.	.
.	8.Rf\	.	16AA	.	.	64r	.	.
.	.	.	.	.	.	128r	.	.
.	.	.	.	.	.	128B-	.	.
.	.	.	.	.	.	32r	.	.
8Rff/J	.	.	16AA	.	.	8G'	8eJ 8a	.
.	.	.	16AAJJ	.	.	.	.	.
=107	=107	=107	=107	=107	=107	=107	=107	=107
8Rcc/L 8Rff	16r	1r	32GGLLL	1r	1r	24dLL	8.eL 8.a 8.dd	1r
.	.	.	32AA-XJ	.	.	.	.	.
.	.	.	.	.	.	24d	.	.
.	8Rf\L	.	16AAn	.	.	.	.	.
.	.	.	.	.	.	24d	.	.
8Rcc/ 8Rff	.	.	16AA	.	.	24d	.	.
.	.	.	.	.	.	24e	.	.
.	16Rf\Jk	.	16AAJJ	.	.	.	[16eJk [16a [16dd	.
.	.	.	.	.	.	24aJJ	.	.
8Rcc/ 8Rff	16r	.	16AALL	.	.	20gLL	8eL] 8a] 8dd]	.
.	.	.	.	.	.	20a	.	.
.	8Rf\L	.	16AA	.	.	.	.	.
.	.	.	.	.	.	20cc	.	.
8Rcc/J 8Rff	.	.	16AA	.	.	.	[8eJ [8a [8dd	.
.	.	.	.	.	.	20b-	.	.
.	16Rf\Jk	.	16AAJJ	.	.	.	.	.
.	.	.	.	.	.	20gJJ	.	.
8Rcc/L 8Rff	16r	.	16CLL	.	.	20aLL	16eKL] 16a] 16dd]	.
.	.	.	.	.	.	20b-	.	.
.	8Rf\L	.	16AA	.	.	.	8e 8a 8dd	.
.	.	.	.	.	.	20cc	.	.
8Rcc/ 8Rff	.	.	16AA	.	.	.	.	.
.	.	.	.	.	.	20ee-X	.	.
.	16Rf\Jk	.	16AAJJ	.	.	.	16eJk 16a 16dd	.
.	.	.	.	.	.	20ccJJ	.	.
8Rcc/ 8Rff	16r	.	16AALL	.	.	32e'	8eL 8a 8dd	.
.	.	.	.	.	.	96r	.	.
.	.	.	.	.	.	96e	.	.
.	.	.	.	.	.	96r	.	.
.	8Rf\L	.	16AA	.	.	48r	.	.
.	.	.	.	.	.	96e	.	.
.	.	.	.	.	.	32r	.	.
8Rcc/J 8Rff	.	.	16AA	.	.	12ggL	8eJ 8a 8dd	.
.	16Rf\Jk	.	16AAJJ	.	.	.	.	.
.	.	.	.	.	.	24ff#XJk	.	.
=108	=108	=108	=108	=108	=108	=108	=108	=108
8.Rcc/L 8.Raa	8r	1r	16CLL	1r	1r	20ggLL	8.eL 8.a	1r
.	.	.	.	.	.	20ff#X	.	.
.	.	.	16AA	.	.	.	.	.
.	.	.	.	.	.	20ff#	.	.
.	8Rf\	.	16AA	.	.	.	.	.
.	.	.	.	.	.	20ff#	.	.
16Rcc/Jk 16Raa	.	.	16CJJ	.	.	.	[16eJk [16a	.
.	.	.	.	.	.	20ff#JJ	.	.
8r	16r	.	16AALL	.	.	24cccLL	8eL] 8a]	.
.	.	.	.	.	.	24bbn	.	.
.	8.Rf\	.	16AA	.	.	.	.	.
.	.	.	.	.	.	24aa	.	.
8Rcc/ 8Raa	.	.	16C	.	.	24ccc	[8eJ [8a	.
.	.	.	.	.	.	24bb	.	.
.	.	.	16AAJJ	.	.	.	.	.
.	.	.	.	.	.	24aaJJ	.	.
16r	4Rf\	.	16AALL	.	.	24cccLL	16eKL] 16a]	.
.	.	.	.	.	.	24bb	.	.
8.Rcc/ 8.Raa	.	.	16C	.	.	.	8.eJ 8.a	.
.	.	.	.	.	.	24aa	.	.
.	.	.	16AA	.	.	48cccL	.	.
.	.	.	.	.	.	48bb	.	.
.	.	.	.	.	.	48aaJ	.	.
.	.	.	16AAJJ	.	.	16aa'JJ	.	.
16Rcc/LL	4r	.	4C'	.	.	4ddd'	4e' 4a	.
16Rcc/	.	.	.	.	.	.	.	.
16Rcc/	.	.	.	.	.	.	.	.
16Rcc/JJ	.	.	.	.	.	.	.	.
=109	=109	=109	=109	=109	=109	=109	=109	=109
8Raa/L	8.Rf\L	1r	8DL	1r	1r	8AL 8d	8aL 8dd	8fL
8Rff/J	.	.	16DL	.	.	16AL 16d	16aL 16dd	16fL
.	16Rf\Jk	.	16DJJ	.	.	16AJJ 16d	16aJJ 16dd	[16fJJ
8Rcc/L 8Rff	16r	.	16r	.	.	16r	16r	16fKL]
.	8.Rf\	.	8D'L	.	.	8A'L 8d	8a'L 8dd	8f
16Rff/L	.	.	.	.	.	.	.	.
16Rcc/JJ	.	.	16DJk	.	.	16AJk 16d	16aJk 16dd	16fJk
8Rff/L	8.Rf\L	.	8AAL	.	.	16ALL 16c	16ccLL 16gg	16fLL
.	.	.	.	.	.	16A 16c	16cc 16gg	16f
8Rff/J	.	.	16AAL	.	.	16A 16c	16cc 16gg	16f
.	16Rf\Jk	.	16AAJJ	.	.	16AJJ 16c	16ccJJ 16gg	[16fJJ
8Rcc/L 8Rff	16r	.	16r	.	.	16r	16r	16fKL]
.	8.Rf\	.	8AA'L	.	.	8A'L 8c	8cc'L 8gg	8f
16Rff/L	.	.	.	.	.	.	.	.
16Rcc/JJ	.	.	16AAJk	.	.	16AJk 16c	16ccJk 16gg	16fJk
=110	=110	=110	=110	=110	=110	=110	=110	=110
8Rff/L	8.Rf\L	1r	8BB-L	1r	1r	16B-LL 16d	16b-LL 16ff	16fLL
.	.	.	.	.	.	16B- 16d	16b- 16ff	16f
8Rff/J	.	.	16BB-L	.	.	16B- 16d	16b- 16ff	16f
.	16Rf\Jk	.	16BB-JJ	.	.	16B-JJ 16d	16b-JJ 16ff	16fJJ
8Rcc/L 8Rff	16r	.	16r	.	.	16r	16r	16fKL
.	8.Rf\	.	8BB-'L	.	.	8B-'L 8d	8b-'L 8ff	8f
16Rff/L	.	.	.	.	.	.	.	.
16Rcc/JJ	.	.	16BB-Jk	.	.	16B-Jk 16d	16b-Jk 16ff	16fJk
16Rff/LL	8.Rf\L	.	16BB-LL	.	.	16cLL 16e	16ccLL 16gg	4a
16Rcc/J	.	.	16BB-	.	.	16c 16e	16cc 16gg	.
8Rff/J	.	.	16BB-	.	.	16c 16e	16cc 16gg	.
.	16Rf\Jk	.	16BB-JJ	.	.	16cJJ 16f	16ccJJ 16aa	.
8Rcc/L 8Rff	16r	.	16CLL	.	.	16cLL 16e	16ccLL 16gg	16gKL
.	8.Rf\	.	16C	.	.	16cJ 16e	16ccJ 16gg	8f
16Rff/L	.	.	16C	.	.	8cJ 8e	8ccJ 8gg	.
16Rcc/JJ	.	.	16CJJ	.	.	.	.	16fJk
=111	=111	=111	=111	=111	=111	=111	=111	=111
8Raa/L	8.Rf\L	1r	8DL	1r	1r	8AL 8d	8aL 8dd	16fLL
.	.	.	.	.	.	.	.	16f
8Rff/J	.	.	16DL	.	.	16AL 16d	16aL 16dd	16f
.	16Rf\Jk	.	16DJJ	.	.	16AJJ 16d	16aJJ 16dd	[16fJJ
8Rcc/L 8Rff	16r	.	16r	.	.	16r	16r	16fKL]
.	8.Rf\	.	8D'L	.	.	8A'L 8d	8a'L 8dd	8f
16Rff/L	.	.	.	.	.	.	.	.
16Rcc/JJ	.	.	16DJk	.	.	16AJk 16d	16aJk 16dd	16fJk
8Rff/L	8.Rf\L	.	8AAL	.	.	8AL 8c	8ddL 8aa	8fL
8Rff/J	.	.	16AAL	.	.	16AL 16c	16ddL 16aa	16fL
.	16Rf\Jk	.	16AAJJ	.	.	16AJJ 16c	16ddJJ 16aa	[16fJJ
8Rcc/L 8Rff	16r	.	16r	.	.	16r	16r	16fKL]
.	8.Rf\	.	8AA'L	.	.	8A'L 8c	8dd'L 8aa	8f
16Rff/L	.	.	.	.	.	.	.	.
16Rcc/JJ	.	.	16AAJk	.	.	16AJk 16c	16ddJk 16aa	16fJk
=112	=112	=112	=112	=112	=112	=112	=112	=112
8Rff/L	8.Rf\L	1r	16B-LL	1r	1r	8B-L 8d	8b-L 8ff	16fLL
.	.	.	16B-	.	.	.	.	16f
8Rff/J	.	.	16B-	.	.	16B-L 16d	16b-L 16ff	16f
.	16Rf\Jk	.	[16B-JJ	.	.	16B-JJ 16d	16b-JJ 16ff	16fJJ
8Rcc/L 8Rff	16r	.	16B-KL]	.	.	16r	16r	16fKL
.	8.Rf\	.	8B-	.	.	8B-'L 8d	8b-'L 8ff	8f
16Rff/L	.	.	.	.	.	.	.	.
16Rcc/JJ	.	.	16B-Jk	.	.	16B-Jk 16d	16b-Jk 16ff	16fJk
16Rff/LL	8.Rf\L	.	16B-LL	.	.	4A	16aLL 16ee	4a
16Rcc/J	.	.	16B-	.	.	.	16a 16ee	.
8Rff/J	.	.	16A	.	.	.	16a 16ee	.
.	16Rf\Jk	.	16B-JJ	.	.	.	16aJJ 16ee	.
8Rcc/L 8Rff	16r	.	8cL	.	.	4d	16ddLL 16aa	8.gL
.	8.Rf\	.	.	.	.	.	16ddJ 16aa	.
16Rff/L	.	.	8GJ	.	.	.	8ddJ 8aa	.
16Rcc/JJ	.	.	.	.	.	.	.	16fJk
=113	=113	=113	=113	=113	=113	=113	=113	=113
8Raa/L	8.Rf\L	1r	8DL	1r	1r	8AL 8d	8aL 8dd	16fLL
.	.	.	.	.	.	.	.	16f
8Rff/J	.	.	16DL	.	.	16AL 16d	16aL 16dd	16f
.	16Rf\Jk	.	16DJJ	.	.	16AJJ 16d	16aJJ 16dd	[16fJJ
8Rcc/L 8Rff	16r	.	16r	.	.	16r	16r	16fKL]
.	8.Rf\	.	8D'L	.	.	8A'L 8d	8a'L 8dd	8f
16Rff/L	.	.	.	.	.	.	.	.
16Rcc/JJ	.	.	16DJk	.	.	16AJk 16d	16aJk 16dd	16fJk
8Rff/L	8.Rf\L	.	16ALL	.	.	16ALL 16c	16ccLL 16gg	8fL
.	.	.	16A	.	.	16A 16c	16cc 16gg	.
8Rff/J	.	.	16A	.	.	16A 16c	16cc 16gg	16fL
.	16Rf\Jk	.	16AJJ	.	.	16AJJ 16c	16ccJJ 16gg	[16fJJ
8Rcc/L 8Rff	16r	.	16r	.	.	16r	16r	16fKL]
.	8.Rf\	.	8A'L	.	.	8A'L 8c	8cc'L 8gg	8f
16Rff/L	.	.	.	.	.	.	.	.
16Rcc/JJ	.	.	16AJk	.	.	16AJk 16c	16ccJk 16gg	16fJk
=114	=114	=114	=114	=114	=114	=114	=114	=114
8Rff/L	8.Rf\L	1r	8B-L	1r	1r	16B-LL 16d	16b-LL 16ff	16fLL
.	.	.	.	.	.	16B- 16d	16b- 16ff	16f
8Rff/J	.	.	16B-L	.	.	16B- 16d	16b- 16ff	16f
.	16Rf\Jk	.	16B-JJ	.	.	16B-JJ 16d	16b-JJ 16ff	16fJJ
8Rcc/L 8Rff	16r	.	16r	.	.	16r	16r	16fKL
.	8.Rf\	.	8B-'L	.	.	8B-'L 8d	8b-'L 8ff	8f
16Rff/L	.	.	.	.	.	.	.	.
16Rcc/JJ	.	.	16B-Jk	.	.	16B-Jk 16d	16b-Jk 16ff	16fJk
16Rff/LL	8.Rf\L	.	16B-LL	.	.	16cLL 16e	16ccLL 16gg	4a
16Rcc/J	.	.	16B-	.	.	16c 16e	16cc 16gg	.
8Rff/J	.	.	16B-	.	.	16c 16e	16cc 16gg	.
.	16Rf\Jk	.	16B-JJ	.	.	16cJJ 16f	16ccJJ 16aa	.
8Rcc/L 8Rff	16r	.	16cLL	.	.	16cLL 16e	16ccLL 16gg	8.gL
.	8.Rf\	.	16c	.	.	16cJ 16e	16ccJ 16gg	.
16Rff/L	.	.	16c	.	.	8cJ 8e	8ccJ 8gg	.
16Rcc/JJ	.	.	16cJJ	.	.	.	.	16fJk
=115	=115	=115	=115	=115	=115	=115	=115	=115
8Raa/L	8.Rf\L	1r	8dL	1r	1r	8AL 8d	8aL 8dd	16fLL
.	.	.	.	.	.	.	.	16f
8Rff/J	.	.	16dL	.	.	16AL 16d	16aL 16dd	16f
.	16Rf\Jk	.	16dJJ	.	.	16AJJ 16d	16aJJ 16dd	[16fJJ
8Rcc/L 8Rff	16r	.	16r	.	.	16r	16r	16fKL]
.	8.Rf\	.	8d'L	.	.	8A'L 8d	8a'L 8dd	8f
16Rff/L	.	.	.	.	.	.	.	.
16Rcc/JJ	.	.	16dJk	.	.	16AJk 16d	16aJk 16dd	16fJk
8Rff/L	8.Rf\L	.	8AL	.	.	8AL 8c	8ddL 8aa	8fL
8Rff/J	.	.	16AL	.	.	16AL 16c	16ddL 16aa	16fL
.	16Rf\Jk	.	[16AJJ	.	.	16AJJ 16c	16ddJJ 16aa	[16fJJ
8Rcc/L 8Rff	16r	.	16AKL]	.	.	16r	16r	16fKL]
.	8.Rf\	.	8A	.	.	8A'L 8c	8dd'L 8aa	8f
16Rff/L	.	.	.	.	.	.	.	.
16Rcc/JJ	.	.	16AJk	.	.	16AJk 16c	16ddJk 16aa	16fJk
=116	=116	=116	=116	=116	=116	=116	=116	=116
8Rff/L	8.Rf\L	1r	8B-L	1r	1r	8B-L 8d	16b-LL 16ff	16fLL
.	.	.	.	.	.	.	16b- 16ff	16f
8Rff/J	.	.	16B-L	.	.	16B-L 16d	16b- 16ff	16f
.	16Rf\Jk	.	16B-JJ	.	.	16B-JJ 16d	16b-JJ 16ff	[16fJJ
8Rcc/L 8Rff	16r	.	16r	.	.	16r	16r	16fLL]
.	8.Rf\	.	8B-'L	.	.	8B-'L 8d	8b-'L 8ff	16f
16Rff/L	.	.	.	.	.	.	.	16f
16Rcc/JJ	.	.	16B-Jk	.	.	16B-Jk 16d	16b-Jk 16ff	16gJJ
16Rff/LL	8.Rf\L	.	16ALL	.	.	4A	16ccLL 16gg	8gL
16Rcc/J	.	.	16B-	.	.	.	16cc 16gg	.
8Rff/J	.	.	16A	.	.	.	16cc 16gg	8a
.	16Rf\Jk	.	16B-JJ	.	.	.	16ccJJ 16gg	.
4Rcc/ 4Raa	4r	.	4AA	.	.	4d	4ff' 4ccc	8g
.	.	.	.	.	.	.	.	8fJ
*v	*v	*	*	*	*	*	*	*
=117	=117	=117	=117	=117	=117	=117	=117
1r	1r	1r	1r	1r	8DL	16DLL	1r
.	.	.	.	.	.	16G	.
.	.	.	.	.	16EL	16A	.
.	.	.	.	.	16FJJ	16dJJ	.
.	.	.	.	.	16r	16r	.
.	.	.	.	.	8G'L	8e'L	.
.	.	.	.	.	16fJk	16aJk	.
.	.	.	.	.	16r	16r	.
.	.	.	.	.	8d'L	8f'L	.
.	.	.	.	.	16eJk	16gJk	.
.	.	.	.	.	16r	16r	.
.	.	.	.	.	8c#X'L	8e'L	.
.	.	.	.	.	16dJk	16fJk	.
=118	=118	=118	=118	=118	=118	=118	=118
*^	*	*	*	*	*	*	*
2r	2r	1r	2r	1r	2r	16r	16r	1r
.	.	.	.	.	.	8A'L	8c#X'L	.
.	.	.	.	.	.	16B-Jk	16dJk	.
.	.	.	.	.	.	16r	16r	.
.	.	.	.	.	.	8G'L	8B-'L	.
.	.	.	.	.	.	16AJk	16cnJk	.
4r	4r	.	4r	.	4r	16r	16r	.
.	.	.	.	.	.	8F'L	8A'L	.
.	.	.	.	.	.	16GJk	16B-Jk	.
8r	8r	.	8r	.	8r	16r	16r	.
.	.	.	.	.	.	8E'L	8G'L	.
16r	16r	.	16r	.	16r	.	.	.
16Raa/	16Rf\	.	16DD	.	16a 16dd	16DJk	16AJk	.
*v	*v	*	*	*	*	*	*	*
==	==	==	==	==	==	==	==
*-	*-	*-	*-	*-	*-	*-	*-
